; GCode generated by CraftWare

G28 X0 Y0
G28 Z0

M190 S60 ;set bed temp (wait)
M109 S215 ;set head temp (wait)
; ------------------------------------
; Layer #0
; ------------------------------------
G21 ; mm
G90 ; abs
G92 E0 ; reset extr
M106 S0
;segType:Skirt
G0 F4800 E-1.0000
G0 F300 Z0.200
G0 X94.229 Y118.452 F10800
G0 F4800 E0.0000
G1 X97.175 Y121.383 E0.1381 F600
G1 X98.199 Y121.383 E0.1722
G1 X98.648 Y121.447 E0.1873
G1 X99.672 Y122.466 E0.2353
G1 X99.864 Y122.529 E0.2420
G1 X100.120 Y122.657 E0.2515
G1 X102.041 Y122.657 E0.3154
G1 X102.682 Y122.275 E0.3402
G1 X103.066 Y122.657 E0.3582
G1 X105.115 Y122.657 E0.4263
G1 X105.243 Y122.529 E0.4323
G1 X105.499 Y122.529 E0.4408
G1 X106.652 Y121.383 E0.4949
G1 X107.677 Y121.383 E0.5290
G1 X108.125 Y121.319 E0.5440
G1 X111.198 Y118.261 E0.6881
G1 X111.391 Y117.942 E0.7005
G1 X113.184 Y116.158 E0.7846
G1 X113.247 Y115.713 E0.7996
G1 X113.247 Y114.184 E0.8504
G1 X113.440 Y113.865 E0.8628
G1 X114.208 Y113.100 E0.8988
G1 X114.272 Y112.400 E0.9222
G1 X114.849 Y112.718 E0.9441
G1 X115.233 Y112.845 E0.9576
G1 X115.489 Y113.100 E0.9696
G1 X115.873 Y113.228 E0.9830
G1 X116.129 Y113.482 E0.9950
G1 X116.513 Y113.610 E1.0085
G1 X120.356 Y115.903 E1.1572
G1 X120.740 Y116.031 E1.1707
G1 X120.996 Y116.286 E1.1827
G1 X121.380 Y116.413 E1.1962
G1 X125.222 Y118.707 E1.3449
G1 X127.271 Y118.707 E1.4130
G1 X127.719 Y118.643 E1.4281
G1 X131.242 Y116.541 E1.5645
G1 X131.626 Y116.413 E1.5779
G1 X131.882 Y116.158 E1.5899
G1 X132.266 Y116.031 E1.6034
G1 X136.108 Y113.737 E1.7521
G1 X136.493 Y113.610 E1.7656
G1 X136.749 Y113.355 E1.7776
G1 X137.133 Y113.228 E1.7911
G1 X140.335 Y111.316 E1.9150
G1 X146.995 Y111.316 E2.1364
G1 X147.443 Y111.253 E2.1515
G1 X150.260 Y108.449 E2.2836
G1 X150.260 Y92.139 E2.8258
G1 X150.260 Y91.630 E2.8427
G1 X147.443 Y88.826 E2.9749
G1 X146.995 Y88.763 E2.9899
G1 X140.335 Y88.763 E3.2113
G1 X137.133 Y86.852 E3.3353
G1 X136.749 Y86.724 E3.3487
G1 X136.493 Y86.469 E3.3607
G1 X136.108 Y86.342 E3.3742
G1 X132.266 Y84.048 E3.5229
G1 X131.882 Y83.921 E3.5364
G1 X131.626 Y83.666 E3.5484
G1 X131.242 Y83.539 E3.5619
G1 X127.719 Y81.436 E3.6982
G1 X127.271 Y81.372 E3.7133
G1 X125.222 Y81.372 E3.7814
G1 X124.966 Y81.627 E3.7934
G1 X124.582 Y81.755 E3.8069
G1 X124.326 Y82.009 E3.8189
G1 X123.942 Y82.137 E3.8323
G1 X120.740 Y84.048 E3.9563
G1 X120.356 Y84.176 E3.9698
G1 X120.099 Y84.430 E3.9818
G1 X119.715 Y84.558 E3.9952
G1 X115.873 Y86.852 E4.1440
G1 X115.489 Y86.979 E4.1574
G1 X115.233 Y87.234 E4.1694
G1 X114.849 Y87.361 E4.1829
G1 X112.608 Y88.699 E4.2697
G1 X109.662 Y91.630 E4.4078
G1 X109.662 Y101.823 E4.7467
G1 X109.598 Y102.270 E4.7617
G1 X109.213 Y101.887 E4.7797
G1 X108.701 Y101.887 E4.7967
G1 X108.381 Y101.696 E4.8091
G1 X106.844 Y100.167 E4.8812
G1 X106.396 Y100.104 E4.8962
G1 X104.859 Y100.104 E4.9473
G1 X104.410 Y100.040 E4.9624
G1 X103.898 Y99.530 E4.9864
G1 X103.450 Y99.466 E5.0014
G1 X101.401 Y99.466 E5.0696
G1 X100.761 Y100.104 E5.0996
G1 X98.455 Y100.104 E5.1762
G1 X96.662 Y101.887 E5.2603
G1 X96.150 Y101.887 E5.2773
G1 X95.830 Y102.078 E5.2897
G1 X92.885 Y105.009 E5.4279
G1 X92.885 Y106.028 E5.4618
G1 X91.348 Y107.558 E5.5338
G1 X91.348 Y109.596 E5.6016
G1 X91.476 Y110.233 E5.6232
G1 X90.963 Y110.743 E5.6472
G1 X90.963 Y113.037 E5.7235
G1 X91.988 Y114.056 E5.7715
G1 X91.988 Y116.095 E5.8393
G1 X94.037 Y118.134 E5.9354
G1 X94.229 Y118.452 E5.9477
G0 F4800 E4.9477
G0 X99.608 Y92.075 F10800
G0 F4800 E5.9477
G1 X100.120 Y92.075 E5.9648 F600
G1 X100.248 Y92.203 E5.9708
G1 X100.761 Y92.203 E5.9878
G1 X100.889 Y92.330 E5.9938
G1 X103.962 Y92.330 E6.0960
G1 X104.859 Y92.203 E6.1261
G1 X105.243 Y92.075 E6.1396
G1 X105.691 Y92.012 E6.1546
G1 X106.075 Y91.884 E6.1681
G1 X106.396 Y91.693 E6.1805
G1 X106.780 Y91.566 E6.1939
G1 X107.740 Y90.993 E6.2311
G1 X107.996 Y90.738 E6.2431
G1 X108.317 Y90.546 E6.2555
G1 X111.198 Y87.680 E6.3906
G1 X111.326 Y87.425 E6.4001
G1 X112.095 Y86.660 E6.4362
G1 X112.479 Y86.023 E6.4609
G1 X112.607 Y85.641 E6.4743
G1 X112.799 Y85.322 E6.4867
G1 X113.184 Y84.175 E6.5269
G1 X113.375 Y82.837 E6.5718
G1 X113.375 Y80.034 E6.6650
G1 X113.247 Y79.907 E6.6710
G1 X113.247 Y79.142 E6.6964
G1 X113.119 Y79.015 E6.7024
G1 X113.056 Y78.569 E6.7174
G1 X112.799 Y77.804 E6.7442
G1 X111.839 Y76.211 E6.8060
G1 X107.996 Y72.389 E6.9862
G1 X106.396 Y71.433 E7.0482
G1 X105.627 Y71.178 E7.0751
G1 X105.499 Y71.051 E7.0811
G1 X104.987 Y71.051 E7.0981
G1 X104.603 Y70.924 E7.1116
G1 X100.505 Y70.924 E7.2478
G1 X100.376 Y71.051 E7.2538
G1 X99.864 Y71.051 E7.2709
G1 X99.480 Y71.178 E7.2843
G1 X99.352 Y71.306 E7.2903
G1 X99.096 Y71.306 E7.2988
G1 X98.455 Y71.688 E7.3236
G1 X98.071 Y71.816 E7.3371
G1 X97.815 Y72.070 E7.3491
G1 X97.175 Y72.453 E7.3739
G1 X93.589 Y76.021 E7.5421
G1 X93.397 Y76.339 E7.5544
G1 X93.141 Y76.594 E7.5664
G1 X92.372 Y77.868 E7.6159
G1 X92.372 Y78.123 E7.6244
G1 X92.244 Y78.250 E7.6304
G1 X92.244 Y78.505 E7.6388
G1 X92.116 Y78.632 E7.6448
G1 X92.116 Y78.887 E7.6533
G1 X91.988 Y79.015 E7.6593
G1 X91.988 Y79.524 E7.6763
G1 X91.860 Y79.907 E7.6897
G1 X91.860 Y82.965 E7.7913
G1 X91.988 Y83.857 E7.8213
G1 X91.988 Y84.112 E7.8298
G1 X92.116 Y84.239 E7.8358
G1 X92.116 Y84.494 E7.8442
G1 X92.244 Y84.621 E7.8502
G1 X92.244 Y84.876 E7.8587
G1 X92.372 Y85.004 E7.8647
G1 X92.436 Y85.449 E7.8797
G1 X93.204 Y86.724 E7.9292
G1 X93.717 Y87.233 E7.9532
G1 X93.909 Y87.552 E7.9656
G1 X96.727 Y90.355 E8.0977
G1 X96.744 Y90.366 E8.0983
G0 F4800 E7.0983
G0 X102.331 Y103.618 F10800
G0 X103.262 Y105.827
G0 X106.000 Y110.228
G0 X106.388 Y114.726
G0 F4800 E8.0983
;segType:Loop
G1 X105.832 Y115.359 E8.1264 F600
G1 X103.803 Y116.263 E8.2002
G1 X101.658 Y116.310 E8.2715
G1 X99.619 Y115.443 E8.3452
G1 X98.074 Y113.782 E8.4206
G1 X97.410 Y111.662 E8.4944
G1 X97.598 Y109.527 E8.5657
G1 X98.702 Y107.556 E8.6408
G1 X100.500 Y106.250 E8.7147
G1 X102.585 Y105.769 E8.7858
G1 X104.754 Y106.192 E8.8593
G1 X106.599 Y107.500 E8.9345
G1 X107.721 Y109.442 E9.0090
G1 X107.915 Y111.295 E9.0710
G1 X108.144 Y111.630 E9.0844
G1 X107.963 Y111.601 E9.0905
G1 X107.277 Y113.713 E9.1643
G1 X106.514 Y114.582 E9.2027
G0 X106.269 Y115.200 F10800
G0 X107.241 Y114.072
G0 X107.945 Y113.889
;segType:Perimeter
G1 X107.349 Y114.240 E9.2257 F360
G1 X106.291 Y115.469 E9.2797
G1 X106.814 Y116.064 E9.3060
G1 X106.979 Y116.349 E9.3169
G1 X107.125 Y116.745 E9.3310
G1 X107.217 Y117.151 E9.3448
G1 X107.053 Y117.280 E9.3517
G1 X106.620 Y117.017 E9.3686
G1 X106.351 Y116.799 E9.3801
G1 X106.134 Y116.556 E9.3909
G1 X105.683 Y115.861 E9.4185
G1 X104.184 Y116.529 E9.4730
G1 X104.428 Y117.305 E9.5001
G1 X104.465 Y117.638 E9.5112
G1 X104.410 Y118.245 E9.5315
G1 X104.356 Y118.488 E9.5397
G1 X104.159 Y118.530 E9.5464
G1 X103.859 Y118.092 E9.5640
G1 X103.607 Y117.473 E9.5863
G1 X103.515 Y116.667 E9.6132
G1 X101.835 Y116.704 E9.6691
G1 X101.742 Y117.491 E9.6954
G1 X101.627 Y117.837 E9.7076
G1 X101.406 Y118.242 E9.7229
G1 X101.198 Y118.530 E9.7347
G1 X101.000 Y118.488 E9.7414
G1 X100.917 Y118.074 E9.7555
G1 X100.928 Y117.296 E9.7814
G1 X101.171 Y116.525 E9.8082
G1 X99.621 Y115.876 E9.8641
G1 X99.217 Y116.558 E9.8904
G1 X98.982 Y116.817 E9.9021
G1 X98.631 Y117.088 E9.9168
G1 X98.297 Y117.284 E9.9297
G1 X98.135 Y117.167 E9.9363
G1 X98.271 Y116.608 E9.9555
G1 X98.403 Y116.288 E9.9670
G1 X98.545 Y116.056 E9.9760
G1 X99.088 Y115.442 E10.0033
G1 X97.937 Y114.219 E10.0591
G1 X97.289 Y114.678 E10.0855
G1 X97.029 Y114.798 E10.0950
G1 X96.630 Y114.907 E10.1087
G1 X96.169 Y114.964 E10.1242
G1 X96.056 Y114.787 E10.1312
G1 X96.354 Y114.393 E10.1476
G1 X96.600 Y114.147 E10.1591
G1 X96.874 Y113.948 E10.1704
G1 X97.610 Y113.572 E10.1979
G1 X97.104 Y112.014 E10.2523
G1 X96.291 Y112.173 E10.2799
G1 X95.546 Y112.105 E10.3047
G1 X95.138 Y111.977 E10.3190
G1 X95.116 Y111.776 E10.3257
G1 X95.543 Y111.540 E10.3419
G1 X96.226 Y111.339 E10.3656
G1 X97.036 Y111.332 E10.3925
G1 X97.175 Y109.659 E10.4483
G1 X96.401 Y109.485 E10.4747
G1 X96.083 Y109.342 E10.4863
G1 X95.702 Y109.080 E10.5016
G1 X95.425 Y108.834 E10.5139
G1 X95.487 Y108.644 E10.5206
G1 X96.157 Y108.603 E10.5429
G1 X96.511 Y108.644 E10.5547
G1 X96.665 Y108.687 E10.5600
G1 X97.422 Y109.016 E10.5875
G1 X98.229 Y107.544 E10.6433
G1 X97.594 Y107.070 E10.6696
G1 X97.371 Y106.822 E10.6807
G1 X97.135 Y106.446 E10.6955
G1 X96.973 Y106.090 E10.7085
G1 X97.108 Y105.931 E10.7154
G1 X97.621 Y106.113 E10.7335
G1 X97.922 Y106.272 E10.7448
G1 X98.156 Y106.448 E10.7546
G1 X98.743 Y107.033 E10.7821
G1 X100.070 Y106.069 E10.8367
G1 X99.669 Y105.358 E10.8638
G1 X99.586 Y105.128 E10.8719
G1 X99.514 Y104.746 E10.8849
G1 X99.499 Y104.187 E10.9034
G1 X99.680 Y104.106 E10.9100
G1 X100.026 Y104.427 E10.9257
G1 X100.259 Y104.712 E10.9379
G1 X100.436 Y105.019 E10.9497
G1 X100.696 Y105.795 E10.9769
G1 X102.330 Y105.409 E11.0327
G1 X102.258 Y104.533 E11.0620
G1 X102.318 Y104.174 E11.0741
G1 X102.433 Y103.809 E11.0868
G1 X102.567 Y103.498 E11.0980
G1 X102.778 Y103.493 E11.1050
G1 X102.957 Y103.914 E11.1202
G1 X103.095 Y104.640 E11.1448
G1 X103.018 Y105.446 E11.1717
G1 X104.669 Y105.759 E11.2276
G1 X104.923 Y105.009 E11.2539
G1 X105.115 Y104.684 E11.2665
G1 X105.403 Y104.350 E11.2811
G1 X105.672 Y104.105 E11.2932
G1 X105.854 Y104.187 E11.2998
G1 X105.839 Y104.746 E11.3184
G1 X105.765 Y105.140 E11.3318
G1 X105.685 Y105.358 E11.3395
G1 X105.281 Y106.072 E11.3668
G1 X106.662 Y107.029 E11.4226
G1 X107.199 Y106.447 E11.4490
G1 X107.489 Y106.238 E11.4608
G1 X107.871 Y106.054 E11.4749
G1 X108.237 Y105.931 E11.4878
G1 X108.382 Y106.083 E11.4947
G1 X108.157 Y106.557 E11.5121
G1 X107.967 Y106.844 E11.5236
G1 X107.757 Y107.073 E11.5339
G1 X107.115 Y107.595 E11.5614
G1 X107.935 Y109.014 E11.6159
G1 X108.686 Y108.688 E11.6431
G1 X108.899 Y108.634 E11.6504
G1 X109.492 Y108.602 E11.6702
G1 X109.865 Y108.639 E11.6826
G1 X109.927 Y108.831 E11.6893
G1 X109.510 Y109.185 E11.7075
G1 X108.934 Y109.491 E11.7292
G1 X108.146 Y109.665 E11.7560
G1 X108.303 Y111.154 E11.8058
G1 X108.424 Y111.332 E11.8130
G1 X109.147 Y111.341 E11.8370
G1 X109.520 Y111.425 E11.8497
G1 X109.943 Y111.605 E11.8650
G1 X110.237 Y111.774 E11.8763
G1 X110.217 Y111.971 E11.8829
G1 X109.791 Y112.108 E11.8977
G1 X109.048 Y112.174 E11.9225
G1 X108.238 Y112.047 E11.9498
G1 X107.732 Y113.606 E12.0042
G1 X108.472 Y113.943 E12.0313
G1 X108.777 Y114.168 E12.0439
G1 X109.106 Y114.520 E12.0599
G1 X109.302 Y114.790 E12.0710
G1 X109.201 Y114.966 E12.0777
G1 X108.737 Y114.910 E12.0933
G1 X108.320 Y114.797 E12.1076
G1 X108.055 Y114.673 E12.1174
G1 X107.434 Y114.230 E12.1427
G1 X106.771 Y114.031
;segType:HShell
G0 X103.634 Y114.380 F10800
G1 X101.899 Y116.106 E12.2241 F600
G1 X101.454 Y116.007
G1 X102.942 Y114.527 E12.2939
G1 X102.431 Y114.494
G1 X101.073 Y115.845 E12.3576
G1 X100.692 Y115.683
G1 X101.943 Y114.439 E12.4162
;segType:Loop
G0 X100.369 Y113.355 F10800
G1 X100.112 Y113.081 E12.4287 F600
G1 X99.954 Y112.848 E12.4381
G1 X99.671 Y112.333 E12.4576
G1 X99.471 Y111.626 E12.4820
G1 X99.440 Y111.315 E12.4924
G1 X99.440 Y110.726 E12.5120
G1 X99.601 Y110.035 E12.5356
G1 X99.731 Y109.724 E12.5468
G1 X100.016 Y109.206 E12.5664
G1 X100.474 Y108.698 E12.5892
G1 X100.761 Y108.468 E12.6014
G1 X101.359 Y108.108 E12.6246
G1 X102.044 Y107.890 E12.6485
G1 X102.935 Y107.839 E12.6782
G1 X103.669 Y107.983 E12.7031
G1 X104.454 Y108.355 E12.7319
G1 X105.046 Y108.848 E12.7576
G1 X105.541 Y109.531 E12.7856
G1 X105.832 Y110.271 E12.8120
G1 X105.935 Y111.082 E12.8392
G1 X105.836 Y111.879 E12.8659
G1 X105.543 Y112.631 E12.8927
G1 X105.079 Y113.281 E12.9193
G1 X104.455 Y113.810 E12.9465
G1 X103.959 Y114.043 E12.9647
G1 X103.496 Y114.219 E12.9812
G1 X102.932 Y114.327 E13.0002
G1 X102.394 Y114.293 E13.0182
G1 X101.902 Y114.233 E13.0346
G1 X101.345 Y114.052 E13.0541
G1 X100.502 Y113.494 E13.0877
;segType:Perimeter
G0 X101.744 Y114.293 F10800
G1 X101.473 Y113.659 E13.1106 F360
G1 X100.758 Y113.186 E13.1392
G1 X100.426 Y112.833 E13.1553
G1 X100.296 Y112.641 E13.1630
G1 X100.044 Y112.182 E13.1804
G1 X99.865 Y111.552 E13.2021
G1 X99.840 Y111.295 E13.2107
G1 X99.840 Y110.771 E13.2281
G1 X99.982 Y110.158 E13.2491
G1 X100.092 Y109.897 E13.2585
G1 X100.345 Y109.438 E13.2759
G1 X100.750 Y108.988 E13.2960
G1 X100.991 Y108.795 E13.3063
G1 X101.526 Y108.473 E13.3271
G1 X102.118 Y108.284 E13.3477
G1 X102.908 Y108.239 E13.3740
G1 X103.542 Y108.363 E13.3955
G1 X104.236 Y108.692 E13.4210
G1 X104.751 Y109.122 E13.4433
G1 X105.187 Y109.723 E13.4680
G1 X105.441 Y110.370 E13.4911
G1 X105.532 Y111.082 E13.5150
G1 X105.445 Y111.781 E13.5384
G1 X105.188 Y112.441 E13.5619
G1 X104.781 Y113.011 E13.5852
G1 X104.236 Y113.473 E13.6090
G1 X103.802 Y113.677 E13.6249
G1 X103.386 Y113.835 E13.6397
G1 X102.907 Y113.926 E13.6559
G1 X102.431 Y113.896 E13.6718
G1 X101.989 Y113.843 E13.6866
G1 X101.576 Y113.709 E13.7010
G1 X100.908 Y113.890
G0 X103.439 Y114.019 F10800
G0 X107.607 Y112.051
;segType:HShell
G1 X103.568 Y116.069 E13.8904 F600
G0 X101.520 Y114.318 F10800
G1 X100.311 Y115.521 E13.9471 F600
G1 X99.930 Y115.359
G1 X101.140 Y114.155 E14.0038
G1 X100.813 Y113.939
G1 X99.608 Y115.138 E14.0603
G1 X99.347 Y114.857
G1 X100.487 Y113.723 E14.1138
G1 X100.200 Y113.467
G1 X99.085 Y114.576 E14.1661
G1 X98.824 Y114.295
G1 X99.941 Y113.184 E14.2185
G1 X99.729 Y112.853
G1 X98.562 Y114.014 E14.2732
G1 X98.301 Y113.733
G1 X99.537 Y112.503 E14.3312
G1 X99.398 Y112.101
G1 X98.147 Y113.346 E14.3898
G1 X98.017 Y112.933
G1 X99.278 Y111.679 E14.4490
G1 X99.240 Y111.176
G1 X97.888 Y112.520 E14.5123
G1 X97.759 Y112.107
G1 X99.261 Y110.614 E14.5827
G0 X98.071 Y109.092 F10800
G1 X100.789 Y106.387 E14.7102 F600
G1 X101.497 Y106.224
G1 X97.763 Y109.939 E14.8853
G1 X97.711 Y110.532
G1 X102.205 Y106.061 E15.0961
G1 X102.797 Y106.013
G1 X97.658 Y111.125 E15.3370
G1 X97.630 Y111.695
G1 X99.445 Y109.889 E15.4221
G0 X98.756 Y107.869 F10800
G1 X99.150 Y107.477 E15.4407 F600
G0 X101.485 Y107.859 F10800
G1 X103.252 Y106.102 E15.5235 F600
G1 X103.706 Y106.190
G1 X102.208 Y107.681 E15.5938
G1 X102.785 Y107.648
G1 X104.161 Y106.279 E15.6583
G1 X104.616 Y106.368
G1 X103.274 Y107.702 E15.7212
G1 X103.729 Y107.791
G1 X104.951 Y106.576 E15.7785
G1 X105.268 Y106.801
G1 X104.098 Y107.966 E15.8334
G1 X104.466 Y108.140
G1 X105.586 Y107.026 E15.8859
G1 X105.904 Y107.251
G1 X104.781 Y108.368 E15.9385
G1 X105.077 Y108.615
G1 X106.221 Y107.476 E15.9922
G1 X106.505 Y107.736
G1 X105.332 Y108.902 E16.0472
G1 X105.560 Y109.217
G1 X106.703 Y108.079 E16.1008
G1 X106.901 Y108.423
G1 X105.765 Y109.554 E16.1541
G1 X105.918 Y109.943
G1 X107.100 Y108.767 E16.2095
G1 X107.298 Y109.110
G1 X106.045 Y110.358 E16.2683
G1 X106.106 Y110.838
G1 X107.497 Y109.454 E16.3336
G1 X107.570 Y109.922
G1 X106.099 Y111.386 E16.4026
G1 X105.989 Y112.037
G1 X107.621 Y110.412 E16.4791
G1 X107.673 Y110.902
G1 X105.427 Y113.137 E16.5845
G0 X105.391 Y115.337 F10800
G1 X106.926 Y113.810 E16.6564 F600
G0 X107.347 Y112.850 F10800
G1 X104.406 Y115.776 E16.7943 F600
G0 X104.675 Y113.885 F10800
G1 X102.455 Y116.093 E16.8984 F600
G1 X103.012 Y116.081
G1 X107.734 Y111.383 E17.1198
G0 F4800 E16.1198
G0 X128.842 Y111.421 F10800
G0 X132.921 Y109.731
G0 X139.176 Y106.714
G0 X145.237 Y106.859
G0 F4800 E17.1198
;segType:Loop
G1 X139.218 Y106.871 E17.3199 F600
G1 X126.496 Y114.216 E17.8083
G1 X114.186 Y107.082 E18.2813
G1 X114.217 Y92.872 E18.7537
G1 X126.495 Y85.784 E19.2250
G1 X139.218 Y93.129 E19.7133
G1 X139.917 Y93.144 E19.7366
G1 X145.888 Y93.144 E19.9351
G1 X145.895 Y93.874 E19.9593
G1 X145.895 Y106.858 E20.3910
G1 X145.429 Y106.858 E20.4065
;segType:Perimeter
G0 X145.972 Y106.618 F10800
G1 X146.237 Y107.255 E20.4294 F360
G1 X139.326 Y107.269 E20.6591
G1 X126.495 Y114.676 E21.1516
G1 X113.786 Y107.311 E21.6400
G1 X113.786 Y92.680 E22.1264
G1 X114.006 Y92.534 E22.1351
G1 X126.495 Y85.324 E22.6146
G1 X139.329 Y92.733 E23.1072
G1 X139.921 Y92.746 E23.1269
G1 X146.284 Y92.746 E23.3384
G1 X146.295 Y93.872 E23.3759
G1 X146.295 Y107.197 E23.8188
G1 X145.655 Y106.935
;segType:HShell
G0 X137.925 Y97.579 F10800
G1 X142.183 Y93.343 E24.0185 F600
G1 X142.727 Y93.343
G1 X138.003 Y98.043 E24.2400
;segType:Perimeter
G0 X137.742 Y97.278 F10800
G1 X137.371 Y97.860 E24.2629 F360
G1 X137.540 Y99.051 E24.3029
G1 X137.582 Y99.933 E24.3323
G1 X137.537 Y100.990 E24.3675
G1 X137.363 Y102.197 E24.4080
G1 X137.094 Y103.256 E24.4443
G1 X136.722 Y104.282 E24.4806
G1 X136.251 Y105.267 E24.5169
G1 X135.686 Y106.201 E24.5532
G1 X135.032 Y107.074 E24.5895
G1 X134.294 Y107.880 E24.6258
G1 X133.481 Y108.608 E24.6620
G1 X132.601 Y109.253 E24.6983
G1 X131.791 Y109.739 E24.7297
G1 X130.808 Y110.212 E24.7660
G1 X129.783 Y110.587 E24.8023
G1 X128.725 Y110.859 E24.8386
G1 X127.646 Y111.026 E24.8749
G1 X126.556 Y111.086 E24.9112
G1 X125.465 Y111.038 E24.9475
G1 X124.384 Y110.883 E24.9838
G1 X123.324 Y110.623 E25.0201
G1 X122.294 Y110.260 E25.0564
G1 X121.305 Y109.797 E25.0927
G1 X120.366 Y109.239 E25.1290
G1 X119.487 Y108.591 E25.1653
G1 X118.676 Y107.860 E25.2016
G1 X117.941 Y107.054 E25.2379
G1 X117.288 Y106.178 E25.2742
G1 X116.725 Y105.243 E25.3105
G1 X116.257 Y104.256 E25.3467
G1 X115.888 Y103.229 E25.3830
G1 X115.622 Y102.170 E25.4193
G1 X115.461 Y101.090 E25.4556
G1 X115.407 Y100.000 E25.4919
G1 X115.461 Y98.910 E25.5282
G1 X115.622 Y97.830 E25.5645
G1 X115.888 Y96.771 E25.6008
G1 X116.257 Y95.744 E25.6371
G1 X116.725 Y94.757 E25.6734
G1 X117.288 Y93.822 E25.7097
G1 X117.941 Y92.946 E25.7460
G1 X118.676 Y92.140 E25.7823
G1 X119.487 Y91.409 E25.8186
G1 X120.366 Y90.761 E25.8549
G1 X121.305 Y90.203 E25.8912
G1 X122.294 Y89.740 E25.9274
G1 X123.324 Y89.377 E25.9637
G1 X124.384 Y89.117 E26.0001
G1 X125.465 Y88.962 E26.0363
G1 X126.556 Y88.914 E26.0726
G1 X127.645 Y88.974 E26.1089
G1 X128.579 Y89.113 E26.1403
G1 X129.640 Y89.370 E26.1766
G1 X130.670 Y89.731 E26.2129
G1 X131.660 Y90.191 E26.2492
G1 X132.600 Y90.747 E26.2855
G1 X133.481 Y91.392 E26.3218
G1 X134.294 Y92.120 E26.3581
G1 X135.032 Y92.926 E26.3944
G1 X135.686 Y93.799 E26.4307
G1 X136.251 Y94.733 E26.4669
G1 X136.722 Y95.718 E26.5032
G1 X137.094 Y96.744 E26.5395
G1 X137.349 Y97.748 E26.5739
G1 X137.913 Y98.147
;segType:Loop
G0 X137.907 Y98.790 F10800
G1 X137.938 Y99.014 E26.5815 F600
G1 X137.983 Y99.932 E26.6120
G1 X137.936 Y101.027 E26.6485
G1 X137.756 Y102.274 E26.6903
G1 X137.477 Y103.372 E26.7280
G1 X137.092 Y104.435 E26.7656
G1 X136.604 Y105.456 E26.8032
G1 X136.018 Y106.423 E26.8408
G1 X135.340 Y107.328 E26.8784
G1 X134.576 Y108.162 E26.9160
G1 X133.734 Y108.917 E26.9536
G1 X132.823 Y109.585 E26.9911
G1 X131.982 Y110.089 E27.0237
G1 X130.965 Y110.579 E27.0613
G1 X129.902 Y110.967 E27.0989
G1 X128.806 Y111.249 E27.1365
G1 X127.688 Y111.422 E27.1741
G1 X126.558 Y111.484 E27.2117
G1 X125.427 Y111.435 E27.2493
G1 X124.308 Y111.275 E27.2870
G1 X123.208 Y111.005 E27.3246
G1 X122.141 Y110.628 E27.3622
G1 X121.117 Y110.149 E27.3998
G1 X120.144 Y109.570 E27.4374
G1 X119.233 Y108.899 E27.4750
G1 X118.393 Y108.142 E27.5126
G1 X117.631 Y107.306 E27.5502
G1 X116.955 Y106.399 E27.5878
G1 X116.372 Y105.430 E27.6254
G1 X115.887 Y104.409 E27.6630
G1 X115.505 Y103.344 E27.7006
G1 X115.229 Y102.248 E27.7382
G1 X115.062 Y101.129 E27.7758
G1 X115.007 Y100.000 E27.8134
G1 X115.062 Y98.871 E27.8510
G1 X115.229 Y97.752 E27.8886
G1 X115.505 Y96.656 E27.9262
G1 X115.887 Y95.591 E27.9638
G1 X116.372 Y94.570 E28.0013
G1 X116.955 Y93.601 E28.0389
G1 X117.631 Y92.694 E28.0766
G1 X118.393 Y91.858 E28.1141
G1 X119.233 Y91.101 E28.1518
G1 X120.144 Y90.430 E28.1894
G1 X121.117 Y89.851 E28.2270
G1 X122.141 Y89.372 E28.2646
G1 X123.208 Y88.995 E28.3022
G1 X124.308 Y88.725 E28.3398
G1 X125.427 Y88.565 E28.3774
G1 X126.558 Y88.516 E28.4151
G1 X127.686 Y88.578 E28.4526
G1 X128.656 Y88.722 E28.4852
G1 X129.754 Y88.988 E28.5228
G1 X130.822 Y89.362 E28.5604
G1 X131.848 Y89.839 E28.5980
G1 X132.822 Y90.415 E28.6356
G1 X133.734 Y91.083 E28.6732
G1 X134.576 Y91.838 E28.7108
G1 X135.340 Y92.672 E28.7484
G1 X136.018 Y93.577 E28.7860
G1 X136.604 Y94.544 E28.8236
G1 X137.092 Y95.565 E28.8612
G1 X137.477 Y96.628 E28.8988
G1 X137.756 Y97.727 E28.9365
G1 X137.880 Y98.600 E28.9658
;segType:HShell
G0 X137.731 Y103.184 F10800
G1 X145.695 Y95.260 E29.3393 F600
G1 X145.695 Y95.801
G1 X137.467 Y103.988 E29.7251
G0 X137.089 Y104.905 F10800
G1 X145.695 Y96.342 E30.1287 F600
G1 X145.695 Y96.883
G1 X136.471 Y106.061 E30.5613
G0 X134.764 Y107.579 F10800
G0 X133.057 Y109.096
G0 X131.351 Y110.614
G1 X129.988 Y111.970 E30.6252 F600
G0 X128.692 Y112.718 F10800
G1 X130.434 Y110.985 E30.7069 F600
G1 X129.631 Y111.242
G1 X127.396 Y113.467 E30.8117
G0 X126.391 Y113.925 F10800
G1 X128.898 Y111.431 E30.9293 F600
G1 X128.247 Y111.537
G1 X126.047 Y113.726 E31.0325
G1 X125.704 Y113.527
G1 X127.615 Y111.625 E31.1221
G1 X127.039 Y111.657
G1 X125.360 Y113.328 E31.2008
G1 X125.016 Y113.128
G1 X126.472 Y111.680 E31.2691
G1 X125.951 Y111.657
G1 X124.673 Y112.929 E31.3290
G1 X124.329 Y112.730
G1 X125.430 Y111.634 E31.3807
G1 X124.953 Y111.568
G1 X123.985 Y112.531 E31.4261
G1 X123.641 Y112.332
G1 X124.477 Y111.500 E31.4653
G1 X124.024 Y111.410
G1 X123.298 Y112.132 E31.4993
G1 X122.954 Y111.933
G1 X123.587 Y111.303 E31.5290
G1 X123.151 Y111.196
G1 X122.610 Y111.734 E31.5544
G1 X122.267 Y111.535
G1 X122.750 Y111.054 E31.5770
G1 X122.348 Y110.912
G1 X121.923 Y111.336 E31.5970
G1 X121.579 Y111.136
G1 X121.956 Y110.761 E31.6147
G1 X121.586 Y110.588
G1 X121.236 Y110.937 E31.6311
G1 X120.892 Y110.738
G1 X121.216 Y110.415 E31.6463
G1 X120.861 Y110.228
G1 X120.548 Y110.539 E31.6610
G1 X120.204 Y110.340
G1 X120.520 Y110.026 E31.6758
G1 X120.180 Y109.823
G1 X119.861 Y110.141 E31.6908
G1 X119.517 Y109.941
G1 X119.855 Y109.605 E31.7066
G1 X119.542 Y109.375
G1 X119.173 Y109.742 E31.7239
G1 X118.830 Y109.543
G1 X119.230 Y109.145 E31.7427
G1 X118.934 Y108.898
G1 X118.486 Y109.344 E31.7637
G1 X118.142 Y109.145
G1 X118.648 Y108.641 E31.7874
G1 X118.363 Y108.384
G1 X117.798 Y108.945 E31.8139
G1 X117.455 Y108.746
G1 X118.094 Y108.110 E31.8439
G1 X117.835 Y107.827
G1 X117.111 Y108.547 E31.8779
G1 X116.767 Y108.348
G1 X117.577 Y107.543 E31.9158
G1 X117.334 Y107.242
G1 X116.424 Y108.149 E31.9585
G1 X116.080 Y107.949
G1 X117.103 Y106.932 E32.0065
G1 X116.872 Y106.621
G1 X115.736 Y107.750 E32.0597
G1 X115.393 Y107.551
G1 X116.658 Y106.292 E32.1191
G1 X116.454 Y105.954
G1 X115.049 Y107.352 E32.1850
G1 X114.705 Y107.153
G1 X116.250 Y105.615 E32.2574
G1 X116.068 Y105.256
G1 X114.386 Y106.929 E32.3363
G1 X114.387 Y106.387
G1 X115.893 Y104.888 E32.4069
G1 X115.719 Y104.521
G1 X114.389 Y105.844 E32.4693
G1 X114.390 Y105.302
G1 X115.573 Y104.125 E32.5248
G1 X115.429 Y103.726
G1 X114.391 Y104.760 E32.5735
G1 X114.392 Y104.217
G1 X115.293 Y103.321 E32.6157
G1 X115.184 Y102.888
G1 X114.393 Y103.675 E32.6528
G1 X114.395 Y103.133
G1 X115.075 Y102.455 E32.6847
G1 X114.990 Y101.999
G1 X114.396 Y102.590 E32.7126
G1 X114.397 Y102.048
G1 X114.920 Y101.528 E32.7371
G1 X114.858 Y101.048
G1 X114.398 Y101.505 E32.7586
G1 X114.399 Y100.963
G1 X114.833 Y100.532 E32.7789
G1 X114.807 Y100.016
G1 X114.401 Y100.421 E32.7980
G1 X114.402 Y99.878
G1 X114.834 Y99.449 E32.8183
G1 X114.862 Y98.880
G1 X114.403 Y99.336 E32.8398
G1 X114.404 Y98.794
G1 X114.953 Y98.248 E32.8655
G1 X115.061 Y97.599
G1 X114.405 Y98.251 E32.8963
G1 X114.407 Y97.709
G1 X115.243 Y96.877 E32.9355
G1 X115.498 Y96.082
G1 X114.408 Y97.167 E32.9866
G1 X114.409 Y96.624
G1 X115.861 Y95.179 E33.0547
G0 X116.629 Y91.710 F10800
G1 X114.415 Y93.913 E33.1585 F600
G1 X114.416 Y93.370
G1 X115.333 Y92.458 E33.2015
G0 X116.451 Y94.051 F10800
G1 X114.410 Y96.082 E33.2972 F600
G1 X114.411 Y95.540
G1 X118.231 Y91.739 E33.4764
G1 X117.924 Y90.962
G1 X114.414 Y94.455 E33.6410
G1 X114.413 Y94.997
G1 X119.220 Y90.214 E33.8664
G0 X118.273 Y91.698 F10800
G1 X120.516 Y89.466 E33.9716 F600
G0 X121.812 Y88.718 F10800
G1 X120.591 Y89.932 E34.0289 F600
G0 X121.722 Y89.348 F10800
G1 X123.108 Y87.970 E34.0939 F600
G0 X122.627 Y88.990 F10800
G1 X124.404 Y87.222 E34.1772 F600
G0 X131.750 Y90.022 F10800
G0 X133.602 Y91.243
G0 X135.180 Y92.804
G0 X136.421 Y94.643
G0 X138.070 Y98.517
G1 X143.271 Y93.343 E34.4211 F600
G1 X143.815 Y93.343
G1 X138.137 Y98.991 E34.6873
G1 X138.162 Y99.508
G1 X144.359 Y93.343 E34.9779
G1 X144.902 Y93.343
G1 X138.179 Y100.033 E35.2932
G1 X138.155 Y100.598
G1 X145.446 Y93.343 E35.6351
G1 X145.693 Y93.639
G1 X138.117 Y101.177 E35.9904
G1 X138.025 Y101.809
G1 X145.695 Y94.178 E36.3501
G1 X145.695 Y94.719
G1 X137.915 Y102.460 E36.7149
G0 X137.552 Y97.767 F10800
G0 X136.900 Y95.644
G0 X135.846 Y93.693
G0 X134.429 Y91.984
G0 X132.706 Y90.587
G0 X130.743 Y89.554
G0 X128.616 Y88.925
G0 X126.557 Y88.723
G0 X123.424 Y88.737
G1 X125.699 Y86.473 E36.8216 F600
G0 X124.146 Y88.560 F10800
G1 X126.628 Y86.091 E36.9380 F600
G1 X126.972 Y86.289
G1 X124.796 Y88.454 E37.0401
G1 X125.429 Y88.366
G1 X127.317 Y86.488 E37.1286
G1 X127.661 Y86.687
G1 X125.998 Y88.341 E37.2066
G1 X126.566 Y88.317
G1 X128.005 Y86.885 E37.2740
G1 X128.349 Y87.084
G1 X127.082 Y88.345 E37.3335
G1 X127.597 Y88.374
G1 X128.693 Y87.283 E37.3849
G1 X129.037 Y87.481
G1 X128.079 Y88.435 E37.4298
G1 X128.552 Y88.505
G1 X129.382 Y87.680 E37.4687
G1 X129.726 Y87.879
G1 X129.000 Y88.601 E37.5027
G1 X129.438 Y88.707
G1 X130.070 Y88.078 E37.5324
G1 X130.414 Y88.276
G1 X129.870 Y88.818 E37.5579
G1 X130.272 Y88.959
G1 X130.758 Y88.475 E37.5807
G1 X131.103 Y88.674
G1 X130.675 Y89.099 E37.6008
G1 X131.063 Y89.254
G1 X131.447 Y88.872 E37.6188
G1 X131.791 Y89.071
G1 X131.434 Y89.427 E37.6355
G1 X131.804 Y89.599
G1 X132.135 Y89.270 E37.6510
G1 X132.479 Y89.469
G1 X132.156 Y89.790 E37.6662
G1 X132.498 Y89.992
G1 X132.823 Y89.667 E37.6815
G1 X133.168 Y89.866
G1 X132.839 Y90.193 E37.6969
G1 X133.160 Y90.415
G1 X133.512 Y90.065 E37.7134
G1 X133.856 Y90.263
G1 X133.473 Y90.645 E37.7314
G1 X133.786 Y90.874
G1 X134.200 Y90.462 E37.7508
G1 X134.544 Y90.661
G1 X134.079 Y91.124 E37.7726
G1 X134.365 Y91.380
G1 X134.889 Y90.860 E37.7971
G1 X135.233 Y91.058
G1 X134.651 Y91.637 E37.8244
G1 X134.917 Y91.914
G1 X135.577 Y91.257 E37.8554
G1 X135.921 Y91.456
G1 X135.176 Y92.197 E37.8903
G1 X135.435 Y92.480
G1 X136.265 Y91.654 E37.9292
G1 X136.609 Y91.853
G1 X135.674 Y92.784 E37.9731
G1 X135.906 Y93.094
G1 X136.954 Y92.052 E38.0222
G1 X137.298 Y92.251
G1 X136.138 Y93.404 E38.0766
G1 X136.348 Y93.736
G1 X137.642 Y92.449 E38.1373
G1 X137.986 Y92.648
G1 X136.553 Y94.074 E38.2045
G1 X136.757 Y94.412
G1 X138.330 Y92.847 E38.2782
G1 X138.675 Y93.045
G1 X136.936 Y94.775 E38.3598
G1 X137.111 Y95.142
G1 X139.019 Y93.244 E38.4492
G1 X139.473 Y93.334
G1 X137.285 Y95.510 E38.5518
G1 X137.429 Y95.908
G1 X140.007 Y93.343 E38.6727
G1 X140.551 Y93.343
G1 X137.573 Y96.306 E38.8124
G1 X137.706 Y96.715
G1 X141.095 Y93.343 E38.9713
G1 X141.639 Y93.343
G1 X137.815 Y97.147 E39.1507
G0 X137.729 Y101.008 F10800
G0 X137.278 Y103.311
G0 X135.180 Y107.196
G0 X132.580 Y110.474
G1 X145.695 Y97.425 E39.7657 F600
G1 X145.695 Y97.966
G1 X133.875 Y109.726 E40.3200
G0 X131.284 Y111.222 F10800
G1 X132.503 Y110.009 E40.3771 F600
G0 X135.171 Y108.977 F10800
G1 X145.695 Y98.507 E40.8706 F600
G1 X145.695 Y99.048
G1 X136.467 Y108.229 E41.3034
G0 X137.763 Y107.481 F10800
G1 X145.695 Y99.589 E41.6753 F600
G1 X145.695 Y100.130
G1 X139.059 Y106.733 E41.9865
G1 X139.665 Y106.671
G1 X145.695 Y100.672 E42.2693
G1 X145.695 Y101.213
G1 X140.210 Y106.670 E42.5265
G1 X140.755 Y106.669
G1 X145.695 Y101.754 E42.7582
G1 X145.695 Y102.295
G1 X141.300 Y106.668 E42.9643
G1 X141.845 Y106.667
G1 X145.695 Y102.836 E43.1448
G1 X145.695 Y103.377
G1 X142.390 Y106.666 E43.2998
G1 X142.935 Y106.665
G1 X145.695 Y103.918 E43.4292
G1 X145.695 Y104.460
G1 X143.480 Y106.663 E43.5331
G1 X144.025 Y106.662
G1 X145.695 Y105.001 E43.6114
G1 X145.695 Y105.542
G1 X144.570 Y106.661 E43.6642
G1 X145.115 Y106.660
G1 X145.695 Y106.083 E43.6914
G0 F4800 E42.6914
G0 X133.166 Y106.953 F10800
G0 X130.660 Y107.126
G0 X128.154 Y107.300
G0 F4800 E43.6914
G1 X133.786 Y101.697 E43.9555 F600
G0 X127.675 Y104.593 F10800
G0 X125.396 Y104.813
;segType:Loop
G1 X125.262 Y104.796 E43.9599 F600
G1 X124.107 Y104.339 E44.0012
G1 X123.102 Y103.609 E44.0425
G1 X122.311 Y102.652 E44.0838
G1 X121.782 Y101.529 E44.1251
G1 X121.551 Y100.311 E44.1663
G1 X121.628 Y99.073 E44.2075
G1 X122.011 Y97.893 E44.2488
G1 X122.677 Y96.845 E44.2900
G1 X123.582 Y95.995 E44.3313
G1 X124.670 Y95.396 E44.3726
G1 X125.874 Y95.087 E44.4139
G1 X127.117 Y95.087 E44.4552
G1 X128.320 Y95.396 E44.4965
G1 X129.409 Y95.995 E44.5378
G1 X130.314 Y96.845 E44.5791
G1 X130.979 Y97.893 E44.6204
G1 X131.362 Y99.073 E44.6616
G1 X131.440 Y100.311 E44.7029
G1 X131.208 Y101.529 E44.7441
G1 X130.679 Y102.652 E44.7854
G1 X129.888 Y103.609 E44.8266
G1 X128.883 Y104.339 E44.8679
G1 X127.728 Y104.796 E44.9092
G1 X126.495 Y104.952 E44.9505
G1 X125.586 Y104.837 E44.9810
G0 X127.675 Y104.593 F10800
G0 X129.743 Y103.456
G0 X133.968 Y101.334
;segType:Perimeter
G1 X134.352 Y101.906 E45.0039 F360
G1 X134.111 Y102.723 E45.0322
G1 X133.757 Y103.561 E45.0625
G1 X133.311 Y104.354 E45.0927
G1 X132.779 Y105.092 E45.1230
G1 X132.167 Y105.766 E45.1532
G1 X131.484 Y106.366 E45.1835
G1 X130.737 Y106.886 E45.2137
G1 X129.937 Y107.319 E45.2439
G1 X129.094 Y107.659 E45.2742
G1 X128.216 Y107.903 E45.3044
G1 X127.443 Y108.034 E45.3305
G1 X126.534 Y108.090 E45.3608
G1 X125.626 Y108.043 E45.3910
G1 X124.728 Y107.894 E45.4213
G1 X123.853 Y107.646 E45.4515
G1 X123.011 Y107.301 E45.4818
G1 X122.213 Y106.864 E45.5120
G1 X121.469 Y106.339 E45.5423
G1 X120.789 Y105.735 E45.5725
G1 X120.182 Y105.058 E45.6028
G1 X119.653 Y104.316 E45.6330
G1 X119.212 Y103.521 E45.6633
G1 X118.863 Y102.680 E45.6935
G1 X118.610 Y101.806 E45.7238
G1 X118.457 Y100.909 E45.7540
G1 X118.406 Y100.000 E45.7843
G1 X118.457 Y99.091 E45.8146
G1 X118.610 Y98.194 E45.8448
G1 X118.863 Y97.320 E45.8751
G1 X119.212 Y96.479 E45.9053
G1 X119.653 Y95.684 E45.9356
G1 X120.182 Y94.942 E45.9658
G1 X120.789 Y94.265 E45.9961
G1 X121.469 Y93.661 E46.0263
G1 X122.213 Y93.136 E46.0566
G1 X123.011 Y92.699 E46.0868
G1 X123.853 Y92.354 E46.1171
G1 X124.728 Y92.105 E46.1473
G1 X125.626 Y91.957 E46.1776
G1 X126.534 Y91.910 E46.2078
G1 X127.442 Y91.966 E46.2381
G1 X128.338 Y92.123 E46.2683
G1 X129.211 Y92.380 E46.2985
G1 X130.049 Y92.734 E46.3288
G1 X130.843 Y93.179 E46.3590
G1 X131.581 Y93.710 E46.3893
G1 X132.255 Y94.321 E46.4195
G1 X132.856 Y95.004 E46.4498
G1 X133.377 Y95.750 E46.4800
G1 X133.810 Y96.550 E46.5102
G1 X134.152 Y97.395 E46.5405
G1 X134.369 Y98.148 E46.5666
G1 X134.542 Y99.195 E46.6019
G1 X134.584 Y99.953 E46.6271
G1 X134.540 Y100.837 E46.6565
G1 X134.378 Y101.795 E46.6888
G1 X133.781 Y102.142
;segType:HShell
G0 X127.754 Y104.993 F10800
G1 X125.343 Y107.391 E46.8018 F600
G1 X124.877 Y107.314
G1 X127.131 Y105.072 E46.9075
;segType:Loop
G0 X133.697 Y102.678 F10800
G1 X133.397 Y103.386 E46.9331 F600
G1 X132.973 Y104.140 E46.9618
G1 X132.467 Y104.842 E46.9906
G1 X131.886 Y105.482 E47.0193
G1 X131.236 Y106.053 E47.0481
G1 X130.526 Y106.547 E47.0768
G1 X129.766 Y106.958 E47.1056
G1 X128.964 Y107.282 E47.1343
G1 X128.129 Y107.514 E47.1631
G1 X127.397 Y107.638 E47.1878
G1 X126.532 Y107.691 E47.2166
G1 X125.669 Y107.647 E47.2454
G1 X124.816 Y107.506 E47.2741
G1 X123.984 Y107.270 E47.3028
G1 X123.184 Y106.942 E47.3316
G1 X122.426 Y106.526 E47.3603
G1 X121.719 Y106.027 E47.3891
G1 X121.073 Y105.453 E47.4178
G1 X120.495 Y104.809 E47.4466
G1 X119.993 Y104.105 E47.4753
G1 X119.573 Y103.348 E47.5041
G1 X119.241 Y102.549 E47.5329
G1 X119.001 Y101.717 E47.5617
G1 X118.855 Y100.864 E47.5904
G1 X118.807 Y100.000 E47.6192
G1 X118.855 Y99.136 E47.6480
G1 X119.001 Y98.283 E47.6767
G1 X119.241 Y97.451 E47.7055
G1 X119.573 Y96.652 E47.7343
G1 X119.993 Y95.895 E47.7631
G1 X120.495 Y95.191 E47.7918
G1 X121.073 Y94.547 E47.8206
G1 X121.719 Y93.973 E47.8493
G1 X122.426 Y93.474 E47.8781
G1 X123.184 Y93.058 E47.9068
G1 X123.984 Y92.730 E47.9356
G1 X124.816 Y92.494 E47.9643
G1 X125.669 Y92.353 E47.9931
G1 X126.532 Y92.309 E48.0218
G1 X127.395 Y92.362 E48.0505
G1 X128.246 Y92.511 E48.0793
G1 X129.076 Y92.756 E48.1080
G1 X129.872 Y93.091 E48.1367
G1 X130.627 Y93.514 E48.1655
G1 X131.328 Y94.020 E48.1942
G1 X131.969 Y94.600 E48.2230
G1 X132.540 Y95.250 E48.2517
G1 X133.035 Y95.959 E48.2805
G1 X133.448 Y96.720 E48.3092
G1 X133.773 Y97.524 E48.3381
G1 X133.978 Y98.236 E48.3627
G1 X134.144 Y99.238 E48.3965
G1 X134.184 Y99.954 E48.4203
G1 X134.142 Y100.794 E48.4483
G1 X133.978 Y101.762 E48.4809
G1 X133.761 Y102.498 E48.5064
G0 F4800 E47.5064
G0 X131.558 Y104.015 F10800
G0 X126.958 Y104.999
G0 F4800 E48.5064
;segType:Perimeter
G1 X126.438 Y104.543 E48.5294 F360
G1 X125.363 Y104.408 E48.5654
G1 X124.302 Y103.987 E48.6033
G1 X123.379 Y103.317 E48.6413
G1 X122.652 Y102.438 E48.6792
G1 X122.166 Y101.406 E48.7171
G1 X121.953 Y100.286 E48.7550
G1 X122.024 Y99.148 E48.7929
G1 X122.376 Y98.063 E48.8308
G1 X122.988 Y97.100 E48.8688
G1 X123.820 Y96.319 E48.9067
G1 X124.819 Y95.769 E48.9446
G1 X125.924 Y95.485 E48.9825
G1 X127.066 Y95.485 E49.0205
G1 X128.171 Y95.769 E49.0584
G1 X129.171 Y96.319 E49.0963
G1 X130.003 Y97.100 E49.1343
G1 X130.614 Y98.063 E49.1722
G1 X130.966 Y99.148 E49.2101
G1 X131.038 Y100.286 E49.2480
G1 X130.824 Y101.406 E49.2859
G1 X130.338 Y102.438 E49.3239
G1 X129.611 Y103.317 E49.3618
G1 X128.688 Y103.987 E49.3997
G1 X127.627 Y104.408 E49.4377
G1 X126.553 Y104.543 E49.4737
G1 X126.033 Y104.999
G0 X122.490 Y102.540 F10800
G0 X121.983 Y101.465
G0 X121.524 Y98.744
;segType:HShell
G1 X119.107 Y101.150 E49.5870 F600
G1 X119.186 Y101.612
G1 X121.407 Y99.402 E49.6912
G1 X121.371 Y99.980
G1 X119.302 Y102.038 E49.7882
G1 X119.423 Y102.459
G1 X121.384 Y100.507 E49.8802
G1 X121.471 Y100.962
G1 X119.580 Y102.844 E49.9689
G1 X119.739 Y103.227
G1 X121.558 Y101.417 E50.0542
G1 X121.698 Y101.819
G1 X119.929 Y103.578 E50.1371
G1 X120.123 Y103.927
G1 X121.871 Y102.187 E50.2191
G1 X122.045 Y102.556
G1 X120.342 Y104.250 E50.2990
G1 X120.567 Y104.567
G1 X122.251 Y102.892 E50.3779
G1 X122.496 Y103.189
G1 X120.812 Y104.864 E50.4569
G1 X121.069 Y105.150
G1 X122.742 Y103.486 E50.5353
G1 X122.994 Y103.776
G1 X121.339 Y105.423 E50.6129
G1 X121.626 Y105.678
G1 X123.308 Y104.005 E50.6918
G1 X123.623 Y104.233
G1 X121.921 Y105.926 E50.7716
G1 X122.239 Y106.150
G1 X123.937 Y104.461 E50.8512
G1 X124.309 Y104.633
G1 X122.560 Y106.372 E50.9332
G1 X122.911 Y106.565
G1 X124.698 Y104.787 E51.0170
G1 X125.087 Y104.941
G1 X123.261 Y106.757 E51.1026
G1 X123.646 Y106.916
G1 X125.540 Y105.032 E51.1914
G1 X126.022 Y105.093
G1 X124.031 Y107.073 E51.2848
G1 X124.452 Y107.195
G1 X126.507 Y105.151 E51.3812
G0 X128.646 Y104.647 F10800
G1 X125.823 Y107.456 E51.5136 F600
G1 X126.340 Y107.482
G1 X133.979 Y99.882 E51.8718
G1 X133.959 Y100.443
G1 X126.897 Y107.469 E52.2030
G1 X127.490 Y107.421
G1 X133.896 Y101.046 E52.5034
G0 X133.158 Y103.405 F10800
G1 X129.870 Y106.676 E52.6576 F600
G0 X128.911 Y107.088 F10800
G1 X133.564 Y102.459 E52.8758 F600
G0 X131.453 Y101.313 F10800
G1 X133.884 Y98.894 E52.9898 F600
G1 X133.951 Y99.369
G1 X131.120 Y102.185 E53.1226
G0 X131.155 Y99.112 F10800
G0 X130.788 Y97.982
G0 X130.151 Y96.978
G0 X129.284 Y96.164
G0 X128.242 Y95.591
G0 X125.944 Y94.888
G1 X128.147 Y92.696 E53.2259 F600
G1 X128.572 Y92.815
G1 X126.488 Y94.888 E53.3236
G1 X127.032 Y94.888
G1 X128.992 Y92.938 E53.4155
G1 X129.375 Y93.098
G1 X127.487 Y94.977 E53.5041
G1 X127.919 Y95.088
G1 X129.757 Y93.259 E53.5903
G1 X130.108 Y93.452
G1 X128.352 Y95.199 E53.6726
G1 X128.710 Y95.383
G1 X130.455 Y93.647 E53.7545
G1 X130.777 Y93.868
G1 X129.060 Y95.576 E53.8350
G1 X129.411 Y95.768
G1 X131.092 Y94.095 E53.9138
G1 X131.388 Y94.343
G1 X129.714 Y96.008 E53.9923
G1 X129.994 Y96.271
G1 X131.672 Y94.601 E54.0710
G1 X131.943 Y94.873
G1 X130.273 Y96.534 E54.1493
G1 X130.532 Y96.817
G1 X132.197 Y95.161 E54.2273
G1 X132.442 Y95.458
G1 X130.743 Y97.149 E54.3070
G1 X130.954 Y97.480
G1 X132.665 Y95.777 E54.3873
G1 X132.885 Y96.100
G1 X131.163 Y97.813 E54.4680
G1 X131.296 Y98.222
G1 X133.075 Y96.452 E54.5514
G1 X133.266 Y96.803
G1 X131.429 Y98.631 E54.6376
G1 X131.561 Y99.041
G1 X133.422 Y97.189 E54.7249
G1 X133.578 Y97.575
G1 X131.593 Y99.550 E54.8180
G1 X131.625 Y100.059
G1 X133.700 Y97.994 E54.9153
G1 X133.807 Y98.429
G1 X131.580 Y100.645 E55.0197
G0 X130.788 Y97.982 F10800
G0 X130.151 Y96.978
G0 X129.284 Y96.164
G0 X128.242 Y95.591
G0 X127.090 Y95.295
G0 X124.456 Y95.287
G1 X127.207 Y92.550 E55.1487 F600
G1 X127.685 Y92.615
G1 X125.245 Y95.043 E55.2632
G0 X119.190 Y98.361 F10800
G1 X124.898 Y92.683 E55.5308 F600
G1 X125.550 Y92.575
G1 X119.079 Y99.013 E55.8343
G1 X119.029 Y99.603
G1 X126.140 Y92.528 E56.1677
G1 X126.694 Y92.518
G1 X119.016 Y100.158 E56.5278
G1 X119.045 Y100.670
G1 X121.784 Y97.945 E56.6563
G0 X124.143 Y92.892 F10800
G1 X119.404 Y97.607 E56.8785 F600
G0 X119.778 Y96.694 F10800
G1 X123.228 Y93.262 E57.0403 F600
G0 X121.553 Y94.387 F10800
G1 X120.913 Y95.024 E57.0703 F600
G0 F4800 E56.0703
G0 X107.679 Y88.119 F10800
G0 X105.473 Y86.968
G0 X96.650 Y82.365
G0 F4800 E57.0703
G1 X103.546 Y75.504 E57.3936 F600
G1 X103.992 Y75.602
G1 X96.710 Y82.847 E57.7352
;segType:Perimeter
G0 X96.476 Y81.945 F10800
G1 X95.960 Y81.487 E57.7581 F360
G1 X96.110 Y80.127 E57.8036
G1 X96.528 Y78.844 E57.8485
G1 X97.239 Y77.608 E57.8959
G1 X98.195 Y76.545 E57.9434
G1 X99.309 Y75.736 E57.9891
G1 X100.616 Y75.154 E58.0367
G1 X101.654 Y74.926 E58.0721
G1 X101.959 Y74.869 E58.0824
G1 X103.394 Y74.869 E58.1301
G1 X103.699 Y74.926 E58.1404
G1 X104.737 Y75.154 E58.1757
G1 X106.045 Y75.736 E58.2233
G1 X107.158 Y76.545 E58.2691
G1 X108.115 Y77.608 E58.3166
G1 X108.804 Y78.802 E58.3624
G1 X109.097 Y79.662 E58.3926
G1 X109.244 Y80.126 E58.4088
G1 X109.400 Y81.544 E58.4562
G1 X109.240 Y82.953 E58.5034
G1 X108.813 Y84.267 E58.5493
G1 X108.547 Y84.786 E58.5687
G1 X108.296 Y85.222 E58.5854
G1 X108.105 Y85.495 E58.5965
G1 X107.178 Y86.525 E58.6425
G1 X106.021 Y87.365 E58.6901
G1 X104.764 Y87.925 E58.7358
G1 X103.365 Y88.222 E58.7834
G1 X101.989 Y88.222 E58.8291
G1 X100.581 Y87.923 E58.8770
G1 X100.207 Y87.794 E58.8901
G1 X99.932 Y87.671 E58.9001
G1 X99.337 Y87.368 E58.9223
G1 X98.175 Y86.525 E58.9701
G1 X97.252 Y85.500 E59.0159
G1 X96.859 Y84.859 E59.0409
G1 X96.613 Y84.433 E59.0573
G1 X96.542 Y84.273 E59.0631
G1 X96.113 Y82.952 E59.1092
G1 X95.960 Y81.601 E59.1545
G1 X96.475 Y81.141
;segType:Loop
G0 X96.467 Y80.541 F10800
G1 X96.503 Y80.211 E59.1655 F600
G1 X96.895 Y79.006 E59.2076
G1 X97.565 Y77.843 E59.2522
G1 X98.465 Y76.842 E59.2970
G1 X99.511 Y76.083 E59.3400
G1 X100.743 Y75.534 E59.3848
G1 X101.734 Y75.316 E59.4185
G1 X101.996 Y75.267 E59.4274
G1 X103.357 Y75.267 E59.4726
G1 X103.619 Y75.316 E59.4815
G1 X104.611 Y75.534 E59.5153
G1 X105.843 Y76.083 E59.5601
G1 X106.888 Y76.842 E59.6030
G1 X107.789 Y77.843 E59.6478
G1 X108.438 Y78.966 E59.6909
G1 X108.717 Y79.785 E59.7197
G1 X108.850 Y80.208 E59.7344
G1 X108.998 Y81.543 E59.7791
G1 X108.847 Y82.868 E59.8234
G1 X108.442 Y84.115 E59.8670
G1 X108.195 Y84.597 E59.8850
G1 X107.958 Y85.009 E59.9008
G1 X107.791 Y85.248 E59.9105
G1 X106.908 Y86.228 E59.9543
G1 X105.819 Y87.019 E59.9991
G1 X104.639 Y87.545 E60.0420
G1 X103.323 Y87.824 E60.0868
G1 X102.031 Y87.824 E60.1297
G1 X100.689 Y87.539 E60.1753
G1 X100.355 Y87.423 E60.1871
G1 X100.105 Y87.312 E60.1962
G1 X99.547 Y87.028 E60.2170
G1 X98.445 Y86.228 E60.2623
G1 X97.575 Y85.261 E60.3055
G1 X97.203 Y84.656 E60.3291
G1 X96.917 Y84.131 E60.3490
G1 X96.506 Y82.868 E60.3931
G1 X96.356 Y81.543 E60.4375
G1 X96.446 Y80.731 E60.4646
G0 F4800 E59.4646
G0 X101.353 Y83.712 F10800
G0 X102.573 Y84.081
G0 X103.817 Y83.813
G0 X104.891 Y83.365
G0 F4800 E60.4646
;segType:HShell
G1 X108.502 Y79.773 E60.6339 F600
G1 X108.364 Y79.369
G1 X104.857 Y82.859 E60.7984
;segType:Perimeter
G0 X104.811 Y82.926 F10800
G1 X104.236 Y83.309 E60.8214 F360
G1 X103.731 Y83.642 E60.8415
G1 X103.173 Y83.839 E60.8612
G1 X102.581 Y83.890 E60.8809
G1 X101.995 Y83.791 E60.9007
G1 X101.454 Y83.548 E60.9204
G1 X100.990 Y83.178 E60.9401
G1 X100.634 Y82.704 E60.9598
G1 X100.409 Y82.155 E60.9796
G1 X100.328 Y81.568 E60.9993
G1 X100.397 Y80.979 E61.0190
G1 X100.611 Y80.426 E61.0387
G1 X100.958 Y79.944 E61.0584
G1 X101.414 Y79.564 E61.0781
G1 X101.951 Y79.311 E61.0979
G1 X102.534 Y79.200 E61.1176
G1 X103.126 Y79.239 E61.1374
G1 X103.690 Y79.426 E61.1571
G1 X104.264 Y79.796 E61.1798
G1 X104.203 Y81.004 E61.2200
G1 X104.203 Y82.082 E61.2559
G1 X104.280 Y83.220 E61.2938
G1 X104.324 Y83.908
;segType:Loop
G0 X103.493 Y84.148 F10800
G1 X103.258 Y84.231 E61.3021 F600
G1 X102.564 Y84.291 E61.3252
G1 X101.878 Y84.175 E61.3484
G1 X101.243 Y83.891 E61.3715
G1 X100.700 Y83.457 E61.3946
G1 X100.283 Y82.901 E61.4177
G1 X100.019 Y82.259 E61.4408
G1 X99.925 Y81.572 E61.4638
G1 X100.005 Y80.883 E61.4869
G1 X100.256 Y80.235 E61.5100
G1 X100.662 Y79.671 E61.5331
G1 X101.196 Y79.226 E61.5562
G1 X101.826 Y78.930 E61.5793
G1 X102.509 Y78.800 E61.6024
G1 X103.204 Y78.846 E61.6256
G1 X103.864 Y79.064 E61.6487
G1 X104.675 Y79.587 E61.6808
G1 X104.603 Y81.014 E61.7283
G1 X104.603 Y82.069 E61.7633
G1 X104.699 Y83.482 E61.8104
G1 X103.911 Y84.001 E61.8418
G1 X103.674 Y84.084 E61.8501
;segType:HShell
G0 X103.278 Y84.429 F10800
G1 X100.448 Y87.245 E61.9828 F600
G1 X100.076 Y87.074
G1 X102.683 Y84.480 E62.1051
G1 X102.190 Y84.429
G1 X99.716 Y86.891 E62.2211
G1 X99.394 Y86.671
G1 X101.743 Y84.333 E62.3313
G1 X101.368 Y84.165
G1 X99.079 Y86.442 E62.4386
G1 X98.765 Y86.214
G1 X101.021 Y83.969 E62.5444
G1 X100.720 Y83.728
G1 X98.474 Y85.962 E62.6497
G1 X98.217 Y85.677
G1 X100.449 Y83.456 E62.7544
G1 X100.217 Y83.146
G1 X97.960 Y85.391 E62.8602
G1 X97.710 Y85.099
G1 X100.024 Y82.797 E62.9688
G1 X99.866 Y82.412
G1 X97.504 Y84.763 E63.0796
G1 X97.303 Y84.421
G1 X99.776 Y81.961 E63.1956
G1 X99.737 Y81.459
G1 X97.111 Y84.071 E63.3187
G1 X96.975 Y83.665
G1 X99.809 Y80.846 E63.4515
G0 X100.467 Y82.798 F10800
G0 X101.353 Y83.712
G0 X102.573 Y84.081
G0 X104.212 Y84.042
G1 X100.864 Y87.373 E63.6085 F600
G1 X101.312 Y87.468
G1 X108.633 Y80.184 E63.9518
G1 X108.699 Y80.659
G1 X101.760 Y87.563 E64.2772
G1 X102.242 Y87.625
G1 X108.753 Y81.147 E64.5826
G1 X108.783 Y81.658
G1 X102.785 Y87.625 E64.8639
G1 X103.337 Y87.618
G1 X108.714 Y82.268 E65.1160
G1 X108.629 Y82.894
G1 X104.028 Y87.471 E65.3318
G0 X107.911 Y84.690 F10800
G1 X105.814 Y86.777 E65.4301 F600
G0 X104.781 Y87.263 F10800
G1 X108.369 Y83.694 E65.5984 F600
G0 X104.822 Y82.352 F10800
G1 X108.214 Y78.978 E65.7574 F600
G1 X108.015 Y78.634
G1 X104.803 Y81.830 E65.9080
G1 X104.803 Y81.289
G1 X107.817 Y78.290 E66.0494
G1 X107.616 Y77.949
G1 X104.817 Y80.733 E66.1806
G1 X104.846 Y80.163
G1 X107.359 Y77.663 E66.2984
G1 X107.102 Y77.378
G1 X104.875 Y79.593 E66.4029
G1 X104.615 Y79.311
G1 X106.845 Y77.092 E66.5074
G1 X106.551 Y76.844
G1 X104.285 Y79.098 E66.6137
G1 X103.955 Y78.885
G1 X106.237 Y76.615 E66.7207
G1 X105.923 Y76.387
G1 X103.548 Y78.750 E66.8321
G1 X103.114 Y78.640
G1 X105.582 Y76.184 E66.9478
G1 X105.206 Y76.017
G1 X102.604 Y78.607 E67.0699
G1 X101.965 Y78.701
G1 X104.830 Y75.850 E67.2042
G1 X104.437 Y75.700
G1 X100.938 Y79.182 E67.3684
G0 X97.612 Y78.162 F10800
G1 X99.300 Y76.482 E67.4476 F600
G0 X100.444 Y75.885 F10800
G1 X97.009 Y79.302 E67.6086 F600
G1 X96.749 Y80.103
G1 X101.247 Y75.627 E67.8196
G1 X101.939 Y75.480
G1 X96.645 Y80.747 E68.0678
G1 X96.578 Y81.355
G1 X102.497 Y75.466 E68.3454
G1 X103.041 Y75.466
G1 X96.595 Y81.879 E68.6477
G0 X96.843 Y83.256 F10800
G1 X100.341 Y79.776 E68.8117 F600
G0 F4800 E67.8117
G0 X102.499 Y78.628 F10800
G0 X144.814 Y71.785
G0 F4800 E68.8117
G1 X151.577 Y65.056 E69.1289 F600
G1 X152.036 Y65.141
G1 X144.873 Y72.267 E69.4648
;segType:Perimeter
G0 X144.665 Y71.533 F10800
G1 X144.152 Y71.071 E69.4878 F360
G1 X144.246 Y70.080 E69.5209
G1 X144.320 Y69.662 E69.5350
G1 X144.648 Y68.619 E69.5713
G1 X144.816 Y68.229 E69.5854
G1 X145.336 Y67.329 E69.6200
G1 X145.589 Y66.989 E69.6341
G1 X146.328 Y66.183 E69.6704
G1 X146.654 Y65.909 E69.6846
G1 X147.144 Y65.553 E69.7047
G1 X147.503 Y65.318 E69.7190
G1 X147.886 Y65.125 E69.7333
G1 X148.489 Y64.857 E69.7552
G1 X148.889 Y64.711 E69.7693
G1 X149.903 Y64.485 E69.8039
G1 X150.324 Y64.436 E69.8180
G1 X151.417 Y64.436 E69.8543
G1 X151.838 Y64.485 E69.8684
G1 X152.853 Y64.711 E69.9030
G1 X153.253 Y64.857 E69.9171
G1 X153.855 Y65.125 E69.9390
G1 X154.239 Y65.318 E69.9533
G1 X154.598 Y65.553 E69.9676
G1 X155.087 Y65.909 E69.9877
G1 X155.413 Y66.183 E70.0019
G1 X156.153 Y66.989 E70.0382
G1 X156.406 Y67.329 E70.0523
G1 X156.926 Y68.229 E70.0869
G1 X157.093 Y68.619 E70.1010
G1 X157.422 Y69.662 E70.1373
G1 X157.496 Y70.081 E70.1515
G1 X157.559 Y70.683 E70.1716
G1 X157.584 Y71.112 E70.1859
G1 X157.559 Y71.541 E70.2002
G1 X157.490 Y72.197 E70.2221
G1 X157.416 Y72.616 E70.2363
G1 X157.104 Y73.608 E70.2708
G1 X156.937 Y73.997 E70.2849
G1 X156.390 Y74.945 E70.3213
G1 X156.137 Y75.285 E70.3354
G1 X155.434 Y76.050 E70.3699
G1 X155.108 Y76.324 E70.3841
G1 X154.574 Y76.712 E70.4060
G1 X154.215 Y76.948 E70.4203
G1 X153.832 Y77.140 E70.4345
G1 X153.278 Y77.387 E70.4547
G1 X152.879 Y77.532 E70.4688
G1 X151.811 Y77.769 E70.5052
G1 X151.390 Y77.818 E70.5193
G1 X150.351 Y77.818 E70.5538
G1 X149.930 Y77.769 E70.5679
G1 X148.863 Y77.532 E70.6042
G1 X148.463 Y77.387 E70.6184
G1 X147.910 Y77.140 E70.6385
G1 X147.526 Y76.948 E70.6528
G1 X147.168 Y76.712 E70.6671
G1 X146.634 Y76.324 E70.6890
G1 X146.308 Y76.050 E70.7032
G1 X145.604 Y75.285 E70.7377
G1 X145.352 Y74.945 E70.7518
G1 X144.805 Y73.997 E70.7882
G1 X144.637 Y73.608 E70.8022
G1 X144.325 Y72.616 E70.8368
G1 X144.251 Y72.197 E70.8510
G1 X144.153 Y71.185 E70.8848
G1 X144.664 Y70.721
;segType:Loop
G0 X144.645 Y70.118 F10800
G1 X144.709 Y69.756 E70.8970 F600
G1 X145.024 Y68.757 E70.9318
G1 X145.174 Y68.408 E70.9444
G1 X145.671 Y67.547 E70.9775
G1 X145.898 Y67.242 E70.9901
G1 X146.606 Y66.470 E71.0249
G1 X146.901 Y66.223 E71.0377
G1 X147.372 Y65.880 E71.0571
G1 X147.704 Y65.662 E71.0703
G1 X148.058 Y65.484 E71.0835
G1 X148.639 Y65.225 E71.1046
G1 X149.002 Y65.094 E71.1174
G1 X149.970 Y64.878 E71.1504
G1 X150.347 Y64.834 E71.1631
G1 X151.394 Y64.834 E71.1978
G1 X151.771 Y64.878 E71.2105
G1 X152.740 Y65.094 E71.2435
G1 X153.102 Y65.225 E71.2563
G1 X153.684 Y65.484 E71.2774
G1 X154.038 Y65.662 E71.2906
G1 X154.369 Y65.880 E71.3038
G1 X154.840 Y66.222 E71.3232
G1 X155.136 Y66.471 E71.3360
G1 X155.843 Y67.242 E71.3708
G1 X156.071 Y67.547 E71.3834
G1 X156.567 Y68.408 E71.4165
G1 X156.718 Y68.757 E71.4291
G1 X157.032 Y69.756 E71.4639
G1 X157.099 Y70.136 E71.4768
G1 X157.160 Y70.716 E71.4961
G1 X157.183 Y71.112 E71.5093
G1 X157.160 Y71.509 E71.5225
G1 X157.094 Y72.142 E71.5437
G1 X157.027 Y72.522 E71.5566
G1 X156.729 Y73.470 E71.5896
G1 X156.578 Y73.819 E71.6022
G1 X156.055 Y74.726 E71.6370
G1 X155.827 Y75.031 E71.6497
G1 X155.156 Y75.763 E71.6827
G1 X154.860 Y76.011 E71.6955
G1 X154.345 Y76.385 E71.7167
G1 X154.014 Y76.603 E71.7299
G1 X153.660 Y76.781 E71.7430
G1 X153.128 Y77.018 E71.7624
G1 X152.766 Y77.149 E71.7752
G1 X151.744 Y77.376 E71.8100
G1 X151.367 Y77.420 E71.8226
G1 X150.374 Y77.420 E71.8556
G1 X149.997 Y77.376 E71.8682
G1 X148.976 Y77.149 E71.9030
G1 X148.614 Y77.018 E71.9158
G1 X148.081 Y76.781 E71.9352
G1 X147.727 Y76.603 E71.9484
G1 X147.396 Y76.385 E71.9616
G1 X146.881 Y76.011 E71.9827
G1 X146.585 Y75.763 E71.9955
G1 X145.914 Y75.031 E72.0286
G1 X145.687 Y74.726 E72.0412
G1 X145.163 Y73.819 E72.0760
G1 X145.013 Y73.470 E72.0886
G1 X144.715 Y72.522 E72.1217
G1 X144.648 Y72.143 E72.1345
G1 X144.549 Y71.127 E72.1684
G1 X144.626 Y70.308 E72.1958
G0 F4800 E71.1958
G0 X154.648 Y66.329 F10800
G0 F4800 E72.1958
;segType:HShell
G1 X151.962 Y69.002 E72.3217 F600
G1 X151.571 Y68.850
G1 X154.334 Y66.101 E72.4513
G1 X154.010 Y65.882
G1 X151.123 Y68.755 E72.5867
;segType:Perimeter
G0 X150.801 Y68.834 F10800
G1 X151.234 Y69.372 E72.6096 F360
G1 X151.610 Y69.487 E72.6227
G1 X151.994 Y69.722 E72.6377
G1 X152.308 Y70.046 E72.6527
G1 X152.532 Y70.437 E72.6677
G1 X152.651 Y70.871 E72.6826
G1 X152.658 Y71.321 E72.6976
G1 X152.554 Y71.759 E72.7126
G1 X152.343 Y72.158 E72.7275
G1 X152.040 Y72.491 E72.7425
G1 X151.664 Y72.739 E72.7575
G1 X151.237 Y72.886 E72.7725
G1 X150.788 Y72.921 E72.7875
G1 X150.343 Y72.844 E72.8025
G1 X149.932 Y72.659 E72.8175
G1 X149.580 Y72.378 E72.8325
G1 X149.309 Y72.017 E72.8475
G1 X149.136 Y71.602 E72.8624
G1 X149.072 Y71.156 E72.8774
G1 X149.121 Y70.708 E72.8924
G1 X149.280 Y70.287 E72.9073
G1 X149.539 Y69.918 E72.9223
G1 X149.882 Y69.625 E72.9373
G1 X150.286 Y69.426 E72.9523
G1 X150.728 Y69.334 E72.9673
G1 X151.121 Y69.352 E72.9804
G1 X151.711 Y68.993
;segType:Loop
G0 X152.390 Y69.557 F10800
G1 X152.631 Y69.805 E72.9919 F600
G1 X152.905 Y70.283 E73.0102
G1 X153.050 Y70.814 E73.0285
G1 X153.059 Y71.364 E73.0468
G1 X152.931 Y71.900 E73.0651
G1 X152.674 Y72.387 E73.0834
G1 X152.303 Y72.795 E73.1017
G1 X151.842 Y73.099 E73.1201
G1 X151.320 Y73.278 E73.1384
G1 X150.769 Y73.322 E73.1568
G1 X150.224 Y73.227 E73.1752
G1 X149.721 Y73.001 E73.1935
G1 X149.290 Y72.656 E73.2119
G1 X148.959 Y72.216 E73.2302
G1 X148.747 Y71.707 E73.2485
G1 X148.669 Y71.162 E73.2668
G1 X148.729 Y70.615 E73.2851
G1 X148.923 Y70.100 E73.3034
G1 X149.240 Y69.649 E73.3217
G1 X149.659 Y69.290 E73.3401
G1 X150.155 Y69.047 E73.3584
G1 X150.696 Y68.934 E73.3768
G1 X151.248 Y68.960 E73.3952
G1 X151.776 Y69.122 E73.4135
G1 X152.247 Y69.410 E73.4319
G1 X152.256 Y69.419 E73.4323
;segType:HShell
G0 X150.578 Y68.755 F10800
G1 X153.656 Y65.693 E73.5766 F600
G1 X153.283 Y65.524
G1 X149.780 Y69.009 E73.7409
G0 X148.330 Y65.581 F10800
G1 X145.319 Y68.577 E73.8821 F600
G0 X144.766 Y71.292 F10800
G1 X151.056 Y65.033 E74.1771 F600
G1 X150.512 Y65.033
G1 X144.787 Y70.729 E74.4456
G1 X144.846 Y70.129
G1 X149.905 Y65.097 E74.6828
G1 X149.204 Y65.253
G1 X145.028 Y69.407 E74.8786
G0 X144.981 Y72.701 F10800
G1 X152.480 Y65.240 E75.2303 F600
G1 X152.900 Y65.364
G1 X145.110 Y73.114 E75.5955
G1 X145.250 Y73.516
G1 X148.726 Y70.057 E75.7585
G1 X148.506 Y70.817
G1 X145.428 Y73.879 E75.9029
G1 X145.627 Y74.223
G1 X148.497 Y71.368 E76.0374
G1 X148.580 Y71.826
G1 X145.825 Y74.567 E76.1666
G1 X146.052 Y74.882
G1 X148.740 Y72.208 E76.2927
G1 X148.952 Y72.538
G1 X146.309 Y75.167 E76.4166
G1 X146.569 Y75.450
G1 X149.196 Y72.836 E76.5398
G1 X149.498 Y73.078
G1 X146.843 Y75.719 E76.6643
G1 X147.147 Y75.957
G1 X149.844 Y73.274 E76.7907
G1 X150.231 Y73.431
G1 X147.461 Y76.186 E76.9206
G1 X147.787 Y76.403
G1 X150.694 Y73.511 E77.0569
G1 X151.267 Y73.482
G1 X148.144 Y76.589 E77.2034
G1 X148.519 Y76.757
G1 X152.178 Y73.117 E77.3750
G0 X153.568 Y76.604 F10800
G1 X156.322 Y73.864 E77.5041 F600
G0 X151.956 Y77.125 F10800
G1 X156.875 Y72.232 E77.7348 F600
G1 X156.948 Y71.618
G1 X151.316 Y77.221 E77.9989
G1 X150.772 Y77.221
G1 X156.979 Y71.046 E78.2900
G1 X156.941 Y70.542
G1 X150.244 Y77.205 E78.6040
G1 X149.781 Y77.125
G1 X156.883 Y70.059 E78.9370
G1 X156.780 Y69.620
G1 X149.337 Y77.026 E79.2861
G1 X148.907 Y76.912
G1 X156.650 Y69.208 E79.6492
G1 X156.518 Y68.798
G1 X152.887 Y72.411 E79.8195
G0 X156.676 Y72.970 F10800
G1 X152.657 Y76.970 E80.0080 F600
G0 X154.947 Y66.573 F10800
G1 X152.299 Y69.208 E80.1322 F600
G1 X152.582 Y69.468
G1 X155.213 Y66.850 E80.2556
G1 X155.472 Y67.133
G1 X152.834 Y69.758 E80.3793
G1 X153.031 Y70.103
G1 X155.727 Y67.421 E80.5057
G1 X155.951 Y67.739
G1 X153.172 Y70.504 E80.6360
G1 X153.253 Y70.965
G1 X156.149 Y68.083 E80.7718
G1 X156.348 Y68.427
G1 X153.224 Y71.535 E80.9183
; ------------------------------------
; Layer #1
; ------------------------------------
G21 ; mm
G90 ; abs
G92 E0 ; reset extr
M106 S0
G0 F4800 E-1.0000
G0 F300 Z0.400
G0 X151.953 Y73.234 F10800
G0 X150.212 Y73.401
G0 X144.478 Y71.108
G0 F4800 E0.0000
;segType:HShell
G1 X150.892 Y77.489 E0.3008 F3600
G1 X151.437 Y77.491
G1 X144.528 Y70.617 E0.6248
;segType:Perimeter
G0 X144.394 Y71.528 F10800
G1 X143.879 Y71.068 E0.6477 F2160
G1 X144.010 Y69.785 E0.6906
G1 X144.061 Y69.572 E0.6979
G1 X144.470 Y68.312 E0.7419
G1 X144.509 Y68.221 E0.7452
G1 X145.175 Y67.068 E0.7895
G1 X145.234 Y66.988 E0.7928
G1 X146.199 Y65.921 E0.8406
G1 X146.275 Y65.857 E0.8439
G1 X147.351 Y65.082 E0.8880
G1 X148.654 Y64.496 E0.9355
G1 X148.863 Y64.434 E0.9427
G1 X150.053 Y64.181 E0.9832
G1 X150.152 Y64.169 E0.9865
G1 X151.590 Y64.169 E1.0343
G1 X151.688 Y64.181 E1.0376
G1 X152.989 Y64.460 E1.0818
G1 X153.082 Y64.494 E1.0851
G1 X154.390 Y65.082 E1.1328
G1 X155.462 Y65.854 E1.1767
G1 X155.621 Y66.004 E1.1840
G1 X156.507 Y66.988 E1.2280
G1 X156.566 Y67.068 E1.2313
G1 X157.232 Y68.221 E1.2755
G1 X157.271 Y68.312 E1.2788
G1 X157.713 Y69.681 E1.3267
G1 X157.730 Y69.779 E1.3300
G1 X157.864 Y71.103 E1.3742
G1 X157.720 Y72.520 E1.4215
G1 X157.669 Y72.733 E1.4288
G1 X157.293 Y73.890 E1.4693
G1 X157.254 Y73.981 E1.4726
G1 X156.534 Y75.227 E1.5204
G1 X156.475 Y75.307 E1.5237
G1 X155.583 Y76.294 E1.5679
G1 X155.507 Y76.358 E1.5712
G1 X154.343 Y77.196 E1.6189
G1 X153.139 Y77.739 E1.6628
G1 X152.930 Y77.801 E1.6701
G1 X151.635 Y78.077 E1.7141
G1 X151.536 Y78.088 E1.7174
G1 X150.205 Y78.088 E1.7616
G1 X150.107 Y78.077 E1.7649
G1 X148.700 Y77.775 E1.8128
G1 X148.608 Y77.741 E1.8160
G1 X147.398 Y77.196 E1.8601
G1 X146.239 Y76.361 E1.9076
G1 X146.080 Y76.211 E1.9149
G1 X145.266 Y75.307 E1.9553
G1 X145.207 Y75.227 E1.9586
G1 X144.487 Y73.981 E2.0065
G1 X144.448 Y73.890 E2.0098
G1 X144.040 Y72.623 E2.0540
G1 X144.022 Y72.525 E2.0573
G1 X143.879 Y71.182 E2.1022
G1 X144.392 Y70.720
;segType:Loop
G0 X144.378 Y70.119 F10800
G1 X144.406 Y69.851 E2.1112 F3600
G1 X144.447 Y69.679 E2.1171
G1 X144.868 Y68.399 E2.1619
G1 X145.510 Y67.286 E2.2046
G1 X145.544 Y67.240 E2.2065
G1 X146.478 Y66.207 E2.2528
G1 X147.553 Y65.428 E2.2969
G1 X148.794 Y64.870 E2.3421
G1 X148.963 Y64.819 E2.3480
G1 X150.175 Y64.567 E2.3891
G1 X151.567 Y64.567 E2.4354
G1 X152.878 Y64.843 E2.4799
G1 X154.189 Y65.428 E2.5277
G1 X155.206 Y66.161 E2.5693
G1 X155.334 Y66.282 E2.5752
G1 X156.231 Y67.286 E2.6200
G1 X156.874 Y68.399 E2.6627
G1 X156.896 Y68.452 E2.6646
G1 X157.324 Y69.777 E2.7109
G1 X157.462 Y71.103 E2.7552
G1 X157.325 Y72.453 E2.8003
G1 X157.284 Y72.626 E2.8062
G1 X156.896 Y73.803 E2.8474
G1 X156.199 Y75.009 E2.8937
G1 X155.304 Y76.007 E2.9383
G1 X154.142 Y76.851 E2.9860
G1 X152.998 Y77.365 E3.0277
G1 X152.830 Y77.416 E3.0335
G1 X151.513 Y77.690 E3.0783
G1 X150.229 Y77.690 E3.1210
G1 X150.173 Y77.684 E3.1228
G1 X148.812 Y77.391 E3.1691
G1 X147.600 Y76.851 E3.2132
G1 X146.495 Y76.054 E3.2585
G1 X146.367 Y75.933 E3.2644
G1 X145.542 Y75.009 E3.3055
G1 X144.846 Y73.803 E3.3518
G1 X144.429 Y72.527 E3.3965
G1 X144.275 Y71.124 E3.4434
G1 X144.359 Y70.309 E3.4706
G0 F4800 E2.4706
G0 X147.020 Y66.061 F10800
G0 F4800 E3.4706
;segType:HShell
G1 X149.916 Y68.942 E3.6064 F3600
G1 X150.328 Y68.811
G1 X147.334 Y65.833 E3.7468
G1 X147.649 Y65.604
G1 X150.806 Y68.745 E3.8949
;segType:Perimeter
G0 X150.762 Y68.838 F10800
G1 X151.204 Y69.369 E3.9178 F2160
G1 X151.581 Y69.477 E3.9309
G1 X151.969 Y69.706 E3.9458
G1 X152.288 Y70.023 E3.9608
G1 X152.517 Y70.410 E3.9757
G1 X152.644 Y70.842 E3.9907
G1 X152.659 Y71.291 E4.0056
G1 X152.561 Y71.730 E4.0206
G1 X152.358 Y72.131 E4.0355
G1 X152.061 Y72.469 E4.0505
G1 X151.689 Y72.723 E4.0655
G1 X151.266 Y72.877 E4.0804
G1 X150.818 Y72.920 E4.0954
G1 X150.373 Y72.850 E4.1104
G1 X149.959 Y72.672 E4.1253
G1 X149.603 Y72.397 E4.1403
G1 X149.326 Y72.042 E4.1553
G1 X149.147 Y71.629 E4.1702
G1 X149.076 Y71.185 E4.1852
G1 X149.117 Y70.737 E4.2001
G1 X149.269 Y70.314 E4.2151
G1 X149.521 Y69.942 E4.2300
G1 X149.858 Y69.643 E4.2450
G1 X150.259 Y69.438 E4.2599
G1 X150.698 Y69.339 E4.2749
G1 X151.091 Y69.351 E4.2880
G1 X151.675 Y68.981
;segType:Loop
G0 X152.363 Y69.535 F10800
G1 X152.606 Y69.778 E4.2994 F3600
G1 X152.887 Y70.251 E4.3177
G1 X153.042 Y70.779 E4.3360
G1 X153.060 Y71.328 E4.3543
G1 X152.941 Y71.865 E4.3725
G1 X152.692 Y72.356 E4.3908
G1 X152.329 Y72.769 E4.4091
G1 X151.874 Y73.080 E4.4274
G1 X151.355 Y73.268 E4.4458
G1 X150.806 Y73.321 E4.4641
G1 X150.260 Y73.235 E4.4825
G1 X149.754 Y73.017 E4.5008
G1 X149.318 Y72.680 E4.5191
G1 X148.979 Y72.246 E4.5375
G1 X148.760 Y71.741 E4.5557
G1 X148.673 Y71.198 E4.5740
G1 X148.724 Y70.651 E4.5923
G1 X148.909 Y70.134 E4.6106
G1 X149.217 Y69.678 E4.6289
G1 X149.630 Y69.313 E4.6472
G1 X150.121 Y69.061 E4.6655
G1 X150.659 Y68.940 E4.6839
G1 X151.211 Y68.956 E4.7022
G1 X151.741 Y69.109 E4.7206
G1 X152.216 Y69.389 E4.7389
G1 X152.227 Y69.399 E4.7394
;segType:HShell
G0 X156.777 Y68.734 F10800
G1 X153.256 Y65.230 E4.9045 F3600
G0 X157.034 Y69.531 F10800
G1 X152.434 Y64.953 E5.1203 F3600
G0 X154.395 Y65.822 F10800
G1 X156.180 Y67.598 E5.2040 F3600
G0 X153.192 Y70.578 F10800
G1 X156.580 Y73.949 E5.3629 F3600
G1 X156.382 Y74.293
G1 X153.255 Y71.182 E5.5095
G1 X153.191 Y71.660
G1 X156.183 Y74.637 E5.6498
G1 X155.970 Y74.966
G1 X153.061 Y72.071 E5.7863
G1 X152.878 Y72.431
G1 X155.714 Y75.252 E5.9192
G1 X155.457 Y75.538
G1 X152.632 Y72.727 E6.0517
G1 X152.355 Y72.992
G1 X155.201 Y75.824 E6.1851
G1 X154.893 Y76.059
G1 X152.033 Y73.213 E6.3193
G1 X151.650 Y73.373
G1 X154.579 Y76.287 E6.4566
G1 X154.264 Y76.515
G1 X151.215 Y73.481 E6.5996
G1 X150.694 Y73.505
G1 X153.932 Y76.726 E6.7515
G1 X153.558 Y76.895
G1 X149.974 Y73.329 E6.9195
G0 X148.062 Y76.839 F10800
G1 X145.164 Y73.955 E7.0555 F3600
G0 X148.667 Y72.028 F10800
G1 X145.069 Y68.449 E7.2241 F3600
G1 X144.929 Y68.851
G1 X153.183 Y77.063 E7.6112
G1 X152.795 Y77.218
G1 X144.795 Y69.259 E7.9864
G1 X144.661 Y69.666
G1 X152.346 Y77.313 E8.3468
G1 X151.897 Y77.407
G1 X144.578 Y70.126 E8.6899
G0 X144.541 Y71.711 F10800
G1 X150.346 Y77.487 E8.9622 F3600
G1 X149.691 Y77.376
G1 X144.607 Y72.319 E9.2006
G0 X148.997 Y77.227 F10800
G1 X144.816 Y73.067 E9.3966 F3600
G0 X150.193 Y69.259 F10800
G0 X151.412 Y68.807
G1 X148.023 Y65.435 E9.5556 F3600
G1 X148.397 Y65.267
G1 X156.757 Y73.584 E9.9476
G1 X156.892 Y73.177
G1 X148.772 Y65.098 E10.3284
G1 X149.192 Y64.975
G1 X157.026 Y72.769 E10.6958
G1 X157.135 Y72.337
G1 X149.642 Y64.881 E11.0472
G1 X150.092 Y64.788
G1 X157.185 Y71.846 E11.3798
G1 X157.235 Y71.354
G1 X150.614 Y64.766 E11.6903
G1 X151.158 Y64.766
G1 X157.230 Y70.808 E11.9751
G1 X157.167 Y70.204
G1 X151.744 Y64.808 E12.2294
G0 X148.488 Y71.310 F10800
G1 X145.269 Y68.107 E12.3804 F3600
G1 X145.468 Y67.764
G1 X148.510 Y70.790 E12.5230
G1 X148.617 Y70.356
G1 X145.668 Y67.421 E12.6614
G1 X145.916 Y67.127
G1 X148.777 Y69.973 E12.7955
G1 X148.995 Y69.650
G1 X146.173 Y66.842 E12.9278
G1 X146.431 Y66.557
G1 X149.261 Y69.373 E13.0606
G1 X149.557 Y69.126
G1 X146.705 Y66.289 E13.1943
G0 F4800 E12.1943
G0 X108.816 Y77.369 F10800
G0 X106.290 Y78.107
G0 X101.079 Y79.099
G0 X96.292 Y81.610
G0 F4800 E13.1943
G1 X102.619 Y87.905 E13.4910 F3600
G1 X103.163 Y87.905
G1 X96.328 Y81.105 E13.8115
;segType:Perimeter
G0 X96.201 Y81.929 F10800
G1 X95.685 Y81.469 E13.8345 F2160
G1 X95.832 Y80.106 E13.8801
G1 X96.256 Y78.760 E13.9270
G1 X97.004 Y77.455 E13.9770
G1 X98.018 Y76.328 E14.0274
G1 X99.157 Y75.500 E14.0742
G1 X100.544 Y74.883 E14.1246
G1 X101.287 Y74.709 E14.1500
G1 X101.917 Y74.592 E14.1713
G1 X103.436 Y74.592 E14.2218
G1 X104.467 Y74.795 E14.2568
G1 X104.808 Y74.882 E14.2685
G1 X106.196 Y75.500 E14.3190
G1 X107.335 Y76.328 E14.3658
G1 X108.350 Y77.455 E14.4162
G1 X109.061 Y78.686 E14.4635
G1 X109.101 Y78.769 E14.4665
G1 X109.522 Y80.106 E14.5131
G1 X109.674 Y81.544 E14.5612
G1 X109.511 Y83.024 E14.6107
G1 X109.074 Y84.369 E14.6577
G1 X108.875 Y84.758 E14.6722
G1 X108.466 Y85.468 E14.6995
G1 X108.324 Y85.671 E14.7077
G1 X107.376 Y86.724 E14.7548
G1 X106.151 Y87.614 E14.8051
G1 X105.581 Y87.857 E14.8257
G1 X104.862 Y88.187 E14.8520
G1 X103.381 Y88.502 E14.9024
G1 X101.973 Y88.502 E14.9492
G1 X100.486 Y88.186 E14.9997
G1 X100.101 Y88.033 E15.0135
G1 X99.463 Y87.747 E15.0367
G1 X99.208 Y87.618 E15.0462
G1 X97.978 Y86.724 E15.0968
G1 X97.035 Y85.677 E15.1436
G1 X96.299 Y84.412 E15.1923
G1 X95.842 Y83.024 E15.2408
G1 X95.685 Y81.583 E15.2890
G1 X96.200 Y81.123
;segType:Loop
G0 X96.189 Y80.522 F10800
G1 X96.225 Y80.188 E15.3002 F3600
G1 X96.624 Y78.920 E15.3444
G1 X97.330 Y77.689 E15.3916
G1 X98.288 Y76.625 E15.4392
G1 X99.359 Y75.847 E15.4832
G1 X100.672 Y75.262 E15.5310
G1 X101.370 Y75.099 E15.5548
G1 X101.954 Y74.989 E15.5745
G1 X103.397 Y74.989 E15.6225
G1 X104.378 Y75.183 E15.6558
G1 X104.675 Y75.259 E15.6659
G1 X105.994 Y75.847 E15.7139
G1 X107.065 Y76.625 E15.7580
G1 X108.024 Y77.689 E15.8056
G1 X108.728 Y78.916 E15.8526
G1 X109.128 Y80.187 E15.8969
G1 X109.272 Y81.543 E15.9422
G1 X109.118 Y82.940 E15.9890
G1 X108.703 Y84.217 E16.0336
G1 X108.523 Y84.568 E16.0467
G1 X108.128 Y85.255 E16.0730
G1 X108.009 Y85.423 E16.0799
G1 X107.106 Y86.427 E16.1248
G1 X105.951 Y87.266 E16.1722
G1 X105.419 Y87.493 E16.1915
G1 X104.735 Y87.807 E16.2165
G1 X103.338 Y88.104 E16.2639
G1 X102.015 Y88.104 E16.3079
G1 X100.603 Y87.804 E16.3559
G1 X100.257 Y87.667 E16.3683
G1 X99.636 Y87.388 E16.3909
G1 X99.418 Y87.278 E16.3990
G1 X98.248 Y86.427 E16.4472
G1 X97.361 Y85.442 E16.4912
G1 X96.666 Y84.248 E16.5371
G1 X96.236 Y82.940 E16.5829
G1 X96.081 Y81.526 E16.6302
G1 X96.169 Y80.712 E16.6574
G0 F4800 E15.6574
G0 X101.376 Y83.723 F10800
G0 X102.598 Y84.080
G0 X108.174 Y84.774
G0 F4800 E16.6574
;segType:HShell
G1 X104.804 Y81.421 E16.8154 F3600
G1 X104.807 Y81.965
G1 X107.976 Y85.118 E16.9640
G1 X107.740 Y85.424
G1 X104.835 Y82.534 E17.1003
;segType:Perimeter
G0 X104.811 Y82.926 F10800
G1 X104.236 Y83.309 E17.1233 F2160
G1 X103.750 Y83.630 E17.1426
G1 X103.195 Y83.832 E17.1622
G1 X102.604 Y83.889 E17.1820
G1 X102.019 Y83.795 E17.2017
G1 X101.475 Y83.559 E17.2214
G1 X101.008 Y83.193 E17.2411
G1 X100.648 Y82.723 E17.2608
G1 X100.417 Y82.177 E17.2805
G1 X100.331 Y81.591 E17.3002
G1 X100.394 Y81.002 E17.3199
G1 X100.602 Y80.448 E17.3396
G1 X100.943 Y79.963 E17.3593
G1 X101.395 Y79.579 E17.3790
G1 X101.929 Y79.321 E17.3987
G1 X102.510 Y79.204 E17.4184
G1 X103.102 Y79.237 E17.4381
G1 X103.668 Y79.418 E17.4578
G1 X104.213 Y79.762 E17.4793
G1 X104.272 Y79.979 E17.4868
G1 X104.203 Y81.092 E17.5238
G1 X104.208 Y82.168 E17.5596
G1 X104.280 Y83.220 E17.5947
G1 X104.324 Y83.908
;segType:Loop
G0 X103.496 Y84.146 F10800
G1 X103.285 Y84.223 E17.6022 F3600
G1 X102.592 Y84.290 E17.6253
G1 X101.905 Y84.180 E17.6484
G1 X101.268 Y83.903 E17.6715
G1 X100.721 Y83.475 E17.6946
G1 X100.299 Y82.924 E17.7177
G1 X100.029 Y82.285 E17.7407
G1 X99.927 Y81.599 E17.7638
G1 X100.001 Y80.910 E17.7868
G1 X100.245 Y80.261 E17.8099
G1 X100.645 Y79.693 E17.8329
G1 X101.174 Y79.244 E17.8560
G1 X101.800 Y78.941 E17.8791
G1 X102.481 Y78.804 E17.9022
G1 X103.176 Y78.843 E17.9254
G1 X103.839 Y79.055 E17.9485
G1 X104.558 Y79.509 E17.9768
G1 X104.676 Y79.938 E17.9916
G1 X104.603 Y81.104 E18.0304
G1 X104.608 Y82.154 E18.0653
G1 X104.699 Y83.482 E18.1096
G1 X103.932 Y83.987 E18.1401
G1 X103.676 Y84.080 E18.1492
;segType:HShell
G0 X104.874 Y83.114 F10800
G1 X107.483 Y85.710 E18.2715 F3600
G1 X107.226 Y85.995
G1 X104.844 Y83.625 E18.3832
G1 X104.517 Y83.841
G1 X106.969 Y86.280 E18.4982
G1 X106.654 Y86.509
G1 X104.189 Y84.056 E18.6138
G1 X103.827 Y84.237
G1 X106.340 Y86.737 E18.7316
G1 X106.026 Y86.966
G1 X103.429 Y84.382 E18.8534
G1 X102.958 Y84.454
G1 X105.682 Y87.164 E18.9811
G1 X105.302 Y87.328
G1 X102.424 Y84.464 E19.1160
G0 X102.075 Y87.905 F10800
G1 X96.358 Y82.217 E19.3841 F3600
G0 X96.665 Y83.604 F10800
G1 X100.702 Y87.622 E19.5735 F3600
G0 X96.380 Y80.616 F10800
G1 X103.638 Y87.837 E19.9138 F3600
G1 X104.086 Y87.742
G1 X96.449 Y80.143 E20.2720
G1 X96.579 Y79.731
G1 X104.535 Y87.647 E20.6451
G1 X104.930 Y87.499
G1 X101.741 Y84.326 E20.7946
G0 X97.075 Y84.554 F10800
G1 X99.745 Y87.210 E20.9198 F3600
G0 X96.424 Y82.824 F10800
G1 X101.394 Y87.769 E21.1529 F3600
G0 X99.901 Y82.495 F10800
G1 X96.708 Y79.319 E21.3026 F3600
G1 X96.853 Y78.922
G1 X99.757 Y81.810 E21.4387
G1 X99.761 Y81.274
G1 X97.051 Y78.577 E21.5658
G1 X97.249 Y78.233
G1 X99.829 Y80.800 E21.6869
G1 X99.977 Y80.406
G1 X97.446 Y77.888 E21.8055
G1 X97.689 Y77.589
G1 X100.155 Y80.042 E21.9212
G1 X100.379 Y79.724
G1 X97.946 Y77.303 E22.0353
G1 X98.203 Y77.018
G1 X100.636 Y79.439 E22.1494
G1 X100.930 Y79.190
G1 X98.468 Y76.740 E22.2649
G1 X98.782 Y76.512
G1 X101.263 Y78.980 E22.3812
G1 X101.628 Y78.802
G1 X99.097 Y76.284 E22.4999
G1 X99.411 Y76.055
G1 X102.056 Y78.686 E22.6239
G1 X102.520 Y78.607
G1 X99.777 Y75.878 E22.7525
G1 X100.153 Y75.711
G1 X103.096 Y78.639 E22.8905
G1 X103.852 Y78.850
G1 X100.529 Y75.544 E23.0463
G1 X100.933 Y75.405
G1 X108.810 Y83.242 E23.4157
G1 X108.930 Y82.820
G1 X101.374 Y75.302 E23.7700
G1 X101.830 Y75.215
G1 X108.984 Y82.332 E24.1055
G1 X109.038 Y81.845
G1 X102.347 Y75.189 E24.4192
G1 X102.891 Y75.189
G1 X109.047 Y81.313 E24.7079
G1 X108.982 Y80.707
G1 X103.450 Y75.203 E24.9673
G0 X104.925 Y75.588 F10800
G1 X108.632 Y79.277 E25.1412 F3600
G0 X105.926 Y76.043 F10800
G1 X108.077 Y78.184 E25.2421 F3600
G0 X104.859 Y79.852 F10800
G1 X108.677 Y83.651 E25.4211 F3600
G1 X108.544 Y84.060
G1 X104.848 Y80.382 E25.5944
G1 X104.816 Y80.892
G1 X108.371 Y84.428 E25.7611
G0 X108.880 Y80.064 F10800
G1 X104.128 Y75.336 E25.9839 F3600
G0 F4800 E24.9839
G0 X123.416 Y91.678 F10800
G0 X125.345 Y93.312
G0 X130.448 Y96.735
G0 X131.584 Y99.406
G0 F4800 E25.9839
G1 X133.797 Y101.609 E26.0877 F3600
;segType:Loop
G0 X133.681 Y102.720 F10800
G1 X133.376 Y103.429 E26.1134 F3600
G1 X133.063 Y103.996 E26.1349
G1 X132.946 Y104.182 E26.1422
G1 X132.571 Y104.710 E26.1637
G1 X132.434 Y104.882 E26.1710
G1 X132.002 Y105.365 E26.1926
G1 X131.847 Y105.520 E26.1999
G1 X131.364 Y105.951 E26.2214
G1 X131.191 Y106.088 E26.2287
G1 X130.663 Y106.462 E26.2502
G1 X129.909 Y106.891 E26.2791
G1 X129.121 Y107.228 E26.3076
G1 X128.287 Y107.478 E26.3365
G1 X127.434 Y107.633 E26.3653
G1 X126.569 Y107.690 E26.3942
G1 X125.703 Y107.650 E26.4230
G1 X124.847 Y107.512 E26.4518
G1 X124.012 Y107.279 E26.4806
G1 X123.208 Y106.953 E26.5095
G1 X122.446 Y106.538 E26.5383
G1 X121.736 Y106.041 E26.5671
G1 X121.086 Y105.466 E26.5960
G1 X120.505 Y104.821 E26.6248
G1 X120.000 Y104.116 E26.6537
G1 X119.577 Y103.357 E26.6825
G1 X119.244 Y102.556 E26.7114
G1 X119.002 Y101.723 E26.7402
G1 X118.856 Y100.867 E26.7691
G1 X118.807 Y100.000 E26.7980
G1 X118.856 Y99.133 E26.8268
G1 X119.002 Y98.278 E26.8557
G1 X119.244 Y97.444 E26.8845
G1 X119.577 Y96.643 E26.9134
G1 X120.000 Y95.884 E26.9422
G1 X120.505 Y95.179 E26.9711
G1 X121.086 Y94.534 E26.9999
G1 X121.736 Y93.959 E27.0288
G1 X122.446 Y93.462 E27.0576
G1 X123.208 Y93.047 E27.0864
G1 X124.012 Y92.721 E27.1153
G1 X124.847 Y92.488 E27.1441
G1 X125.703 Y92.350 E27.1729
G1 X126.569 Y92.310 E27.2017
G1 X127.434 Y92.367 E27.2306
G1 X128.287 Y92.522 E27.2594
G1 X129.121 Y92.772 E27.2883
G1 X129.909 Y93.109 E27.3168
G1 X130.663 Y93.538 E27.3457
G1 X131.191 Y93.912 E27.3672
G1 X131.364 Y94.049 E27.3745
G1 X131.847 Y94.480 E27.3960
G1 X132.002 Y94.635 E27.4033
G1 X132.434 Y95.118 E27.4249
G1 X132.571 Y95.290 E27.4322
G1 X132.946 Y95.818 E27.4537
G1 X133.063 Y96.004 E27.4610
G1 X133.376 Y96.571 E27.4825
G1 X133.718 Y97.368 E27.5114
G1 X133.965 Y98.187 E27.5398
G1 X134.140 Y99.181 E27.5734
G1 X134.183 Y100.082 E27.6033
G1 X134.149 Y100.724 E27.6247
G1 X133.965 Y101.814 E27.6615
G1 X133.746 Y102.540 E27.6867
G0 F4800 E26.6867
G0 X133.954 Y101.385 F10800
G0 F4800 E27.6867
;segType:Perimeter
G1 X134.340 Y101.957 E27.7096 F2160
G1 X134.172 Y102.542 E27.7299
G1 X134.093 Y102.772 E27.7379
G1 X133.837 Y103.391 E27.7602
G1 X133.732 Y103.610 E27.7683
G1 X133.408 Y104.197 E27.7905
G1 X133.280 Y104.402 E27.7986
G1 X132.892 Y104.949 E27.8209
G1 X132.740 Y105.138 E27.8289
G1 X132.294 Y105.638 E27.8512
G1 X132.122 Y105.809 E27.8593
G1 X131.622 Y106.256 E27.8816
G1 X131.432 Y106.406 E27.8896
G1 X130.885 Y106.793 E27.9119
G1 X130.679 Y106.921 E27.9200
G1 X130.092 Y107.245 E27.9422
G1 X129.873 Y107.348 E27.9503
G1 X129.256 Y107.603 E27.9725
G1 X128.381 Y107.866 E28.0029
G1 X127.484 Y108.028 E28.0332
G1 X126.573 Y108.089 E28.0635
G1 X125.662 Y108.046 E28.0938
G1 X124.761 Y107.901 E28.1242
G1 X123.882 Y107.656 E28.1545
G1 X123.036 Y107.313 E28.1849
G1 X122.234 Y106.877 E28.2152
G1 X121.487 Y106.353 E28.2455
G1 X120.803 Y105.748 E28.2759
G1 X120.192 Y105.071 E28.3062
G1 X119.661 Y104.328 E28.3366
G1 X119.217 Y103.531 E28.3669
G1 X118.866 Y102.688 E28.3973
G1 X118.611 Y101.812 E28.4276
G1 X118.458 Y100.911 E28.4580
G1 X118.406 Y100.000 E28.4883
G1 X118.458 Y99.089 E28.5186
G1 X118.611 Y98.189 E28.5490
G1 X118.866 Y97.312 E28.5793
G1 X119.217 Y96.469 E28.6097
G1 X119.661 Y95.672 E28.6400
G1 X120.192 Y94.929 E28.6704
G1 X120.803 Y94.252 E28.7007
G1 X121.487 Y93.647 E28.7311
G1 X122.234 Y93.123 E28.7614
G1 X123.036 Y92.687 E28.7917
G1 X123.882 Y92.344 E28.8221
G1 X124.761 Y92.099 E28.8524
G1 X125.662 Y91.954 E28.8827
G1 X126.573 Y91.911 E28.9131
G1 X127.483 Y91.972 E28.9434
G1 X128.381 Y92.134 E28.9737
G1 X129.256 Y92.397 E29.0041
G1 X129.873 Y92.652 E29.0263
G1 X130.092 Y92.755 E29.0344
G1 X130.679 Y93.079 E29.0566
G1 X130.885 Y93.207 E29.0647
G1 X131.432 Y93.594 E29.0870
G1 X131.622 Y93.744 E29.0950
G1 X132.122 Y94.191 E29.1173
G1 X132.294 Y94.362 E29.1254
G1 X132.740 Y94.862 E29.1477
G1 X132.892 Y95.051 E29.1557
G1 X133.280 Y95.598 E29.1780
G1 X133.408 Y95.803 E29.1861
G1 X133.732 Y96.390 E29.2083
G1 X133.837 Y96.609 E29.2164
G1 X134.093 Y97.228 E29.2387
G1 X134.172 Y97.458 E29.2467
G1 X134.356 Y98.098 E29.2689
G1 X134.538 Y99.137 E29.3040
G1 X134.584 Y100.083 E29.3354
G1 X134.547 Y100.767 E29.3582
G1 X134.365 Y101.845 E29.3946
G1 X133.770 Y102.196
;segType:HShell
G0 X125.856 Y105.072 F10800
G1 X128.105 Y107.309 E29.5000 F3600
G1 X128.535 Y107.196
G1 X126.479 Y105.150 E29.5965
G1 X126.965 Y105.093
G1 X128.953 Y107.071 E29.6897
G1 X129.342 Y106.917
G1 X127.448 Y105.032 E29.7785
;segType:Perimeter
G0 X126.958 Y104.999 F10800
G1 X126.438 Y104.543 E29.8015 F2160
G1 X125.363 Y104.408 E29.8375
G1 X124.302 Y103.987 E29.8754
G1 X123.379 Y103.317 E29.9134
G1 X122.652 Y102.438 E29.9513
G1 X122.166 Y101.406 E29.9892
G1 X121.953 Y100.286 E30.0271
G1 X122.024 Y99.148 E30.0650
G1 X122.376 Y98.063 E30.1029
G1 X122.988 Y97.100 E30.1408
G1 X123.820 Y96.319 E30.1788
G1 X124.819 Y95.769 E30.2167
G1 X125.924 Y95.485 E30.2546
G1 X127.066 Y95.485 E30.2926
G1 X128.171 Y95.769 E30.3305
G1 X129.171 Y96.319 E30.3684
G1 X130.003 Y97.100 E30.4064
G1 X130.614 Y98.063 E30.4443
G1 X130.966 Y99.148 E30.4822
G1 X131.038 Y100.286 E30.5201
G1 X130.824 Y101.406 E30.5580
G1 X130.338 Y102.438 E30.5959
G1 X129.611 Y103.317 E30.6339
G1 X128.688 Y103.987 E30.6718
G1 X127.627 Y104.408 E30.7097
G1 X126.553 Y104.543 E30.7457
G1 X126.033 Y104.999
;segType:Loop
G0 X125.396 Y104.813 F10800
G1 X125.262 Y104.796 E30.7502 F3600
G1 X124.107 Y104.339 E30.7915
G1 X123.102 Y103.609 E30.8328
G1 X122.311 Y102.652 E30.8741
G1 X121.782 Y101.529 E30.9153
G1 X121.551 Y100.311 E30.9566
G1 X121.628 Y99.073 E30.9978
G1 X122.011 Y97.893 E31.0390
G1 X122.677 Y96.845 E31.0803
G1 X123.582 Y95.995 E31.1216
G1 X124.670 Y95.396 E31.1629
G1 X125.874 Y95.087 E31.2042
G1 X127.117 Y95.087 E31.2455
G1 X128.320 Y95.396 E31.2868
G1 X129.409 Y95.995 E31.3281
G1 X130.314 Y96.845 E31.3694
G1 X130.979 Y97.893 E31.4106
G1 X131.362 Y99.073 E31.4519
G1 X131.440 Y100.311 E31.4931
G1 X131.208 Y101.529 E31.5344
G1 X130.679 Y102.652 E31.5756
G1 X129.888 Y103.609 E31.6169
G1 X128.883 Y104.339 E31.6582
G1 X127.728 Y104.796 E31.6995
G1 X126.495 Y104.952 E31.7408
G1 X125.586 Y104.837 E31.7712
;segType:HShell
G0 X124.338 Y104.644 F10800
G1 X127.160 Y107.451 E31.9036 F3600
G1 X127.644 Y107.392
G1 X125.232 Y104.993 E32.0167
G0 X127.901 Y104.942 F10800
G1 X129.722 Y106.754 E32.1021 F3600
G1 X130.077 Y106.566
G1 X128.290 Y104.788 E32.1859
G1 X128.679 Y104.634
G1 X130.423 Y106.369 E32.2677
G1 X130.750 Y106.153
G1 X129.051 Y104.463 E32.3474
G1 X129.366 Y104.234
G1 X131.064 Y105.924 E32.4270
G1 X131.363 Y105.681
G1 X129.680 Y104.006 E32.5059
G1 X129.994 Y103.778
G1 X131.646 Y105.421 E32.5834
G1 X131.922 Y105.155
G1 X130.247 Y103.488 E32.6620
G1 X130.492 Y103.191
G1 X132.178 Y104.869 E32.7411
G1 X132.424 Y104.572
G1 X130.738 Y102.894 E32.8201
G1 X130.944 Y102.558
G1 X132.650 Y104.255 E32.9001
G1 X132.863 Y103.926
G1 X131.118 Y102.190 E32.9819
G1 X131.291 Y101.821
G1 X133.060 Y103.581 E33.0649
G1 X133.246 Y103.225
G1 X131.432 Y101.420 E33.1499
G1 X131.519 Y100.966
G1 X133.409 Y102.846 E33.2386
G1 X133.562 Y102.457
G1 X131.606 Y100.511 E33.3303
G1 X131.620 Y99.984
G1 X133.688 Y102.041 E33.4273
G0 X131.389 Y94.342 F10800
G1 X132.149 Y95.098 E33.4629 F3600
G0 X133.213 Y96.699 F10800
G1 X129.759 Y93.262 E33.6249 F3600
G0 X128.850 Y92.899 F10800
G1 X133.581 Y97.606 E33.8468 F3600
G1 X133.792 Y98.357
G1 X128.096 Y92.689 E34.1139
G0 X128.526 Y95.282 F10800
G1 X125.776 Y92.546 E34.2429 F3600
G1 X126.296 Y92.522
G1 X133.978 Y100.165 E34.6032
G1 X133.960 Y99.606
G1 X126.846 Y92.528 E34.9368
G1 X127.431 Y92.569
G1 X133.907 Y99.013 E35.2405
G0 X131.468 Y98.750 F10800
G1 X133.875 Y101.145 E35.3534 F3600
G1 X133.951 Y100.679
G1 X131.208 Y97.950 E35.4820
G0 X129.284 Y96.164 F10800
G0 X128.242 Y95.591
G0 X127.090 Y95.295
G0 X125.900 Y95.295
G0 X124.748 Y95.591
G0 X123.706 Y96.164
G0 X122.839 Y96.978
G0 X122.202 Y97.982
G0 X121.835 Y99.112
G0 X121.539 Y101.317
G1 X119.100 Y98.891 E35.5964 F3600
G1 X119.179 Y98.429
G1 X121.412 Y100.650 E35.7011
G1 X121.366 Y100.063
G1 X119.291 Y97.999 E35.7983
G1 X119.413 Y97.579
G1 X121.398 Y99.554 E35.8914
G1 X121.429 Y99.044
G1 X119.566 Y97.190 E35.9788
G1 X119.725 Y96.808
G1 X121.560 Y98.634 E36.0649
G1 X121.693 Y98.225
G1 X119.912 Y96.452 E36.1484
G1 X120.106 Y96.104
G1 X121.826 Y97.816 E36.2291
G1 X122.035 Y97.482
G1 X120.322 Y95.778 E36.3094
G1 X120.548 Y95.461
G1 X122.246 Y97.151 E36.3890
G1 X122.456 Y96.819
G1 X120.789 Y95.161 E36.4672
G1 X121.047 Y94.876
G1 X122.715 Y96.535 E36.5454
G1 X122.995 Y96.273
G1 X121.313 Y94.600 E36.6243
G1 X121.601 Y94.345
G1 X123.275 Y96.010 E36.7028
G1 X123.577 Y95.770
G1 X121.892 Y94.093 E36.7818
G1 X122.211 Y93.870
G1 X123.928 Y95.577 E36.8623
G1 X124.278 Y95.385
G1 X122.531 Y93.646 E36.9442
G1 X122.880 Y93.453
G1 X124.636 Y95.200 E37.0266
G1 X125.068 Y95.089
G1 X123.232 Y93.261 E37.1127
G1 X123.612 Y93.098
G1 X125.500 Y94.977 E37.2012
G1 X125.955 Y94.888
G1 X123.998 Y92.942 E37.2930
G1 X124.415 Y92.815
G1 X126.498 Y94.888 E37.3907
G1 X127.042 Y94.888
G1 X124.840 Y92.696 E37.4940
G1 X125.303 Y92.616
G1 X127.741 Y95.042 E37.6083
G0 X130.151 Y96.978 F10800
G0 X130.788 Y97.982
G0 X131.155 Y99.112
G0 X131.230 Y100.298
G0 X131.007 Y101.465
G0 X129.743 Y103.456
G0 X125.490 Y107.414
G1 X119.089 Y101.045 E37.9085 F3600
G1 X119.032 Y100.448
G1 X126.089 Y107.469 E38.2394
G1 X126.650 Y107.485
G1 X119.013 Y99.888 E38.5976
G1 X119.042 Y99.375
G1 X121.874 Y102.192 E38.7303
G0 X119.203 Y101.700 F10800
G1 X124.834 Y107.302 E38.9943 F3600
G1 X124.077 Y107.090
G1 X119.424 Y102.461 E39.2125
G0 X119.837 Y103.412 F10800
G1 X123.118 Y106.677 E39.3664 F3600
G0 F4800 E38.3664
G0 X129.951 Y103.781 F10800
G0 X138.125 Y98.880
G0 F4800 E39.3664
G1 X145.695 Y106.411 E39.7214 F3600
;segType:Perimeter
G0 X145.973 Y106.571 F10800
G1 X146.237 Y107.208 E39.7443 F2160
G1 X139.313 Y107.208 E39.9745
G1 X139.178 Y107.261 E39.9793
G1 X126.495 Y114.583 E40.4662
G1 X113.946 Y107.338 E40.9479
G1 X113.866 Y107.259 E40.9516
G1 X113.866 Y92.708 E41.4354
G1 X126.417 Y85.462 E41.9171
G1 X126.522 Y85.432 E41.9207
G1 X139.222 Y92.764 E42.4082
G1 X140.357 Y92.792 E42.4460
G1 X146.274 Y92.792 E42.6427
G1 X146.295 Y93.515 E42.6667
G1 X146.295 Y107.150 E43.1200
G1 X145.656 Y106.887
;segType:Loop
G0 X145.237 Y106.810 F10800
G1 X139.237 Y106.810 E43.3195 F3600
G1 X139.003 Y106.901 E43.3278
G1 X126.495 Y114.123 E43.8080
G1 X114.266 Y107.063 E44.2774
G1 X114.266 Y92.937 E44.7470
G1 X126.495 Y85.877 E45.2164
G1 X139.109 Y93.159 E45.7006
G1 X140.352 Y93.190 E45.7419
G1 X145.885 Y93.190 E45.9259
G1 X145.895 Y93.521 E45.9369
G1 X145.895 Y106.810 E46.3786
G1 X145.430 Y106.810 E46.3941
;segType:HShell
G0 X145.695 Y104.788 F10800
G1 X137.746 Y96.879 E46.7669 F3600
;segType:Perimeter
G0 X137.732 Y97.242 F10800
G1 X137.364 Y97.826 E46.7898 F2160
G1 X137.539 Y99.018 E46.8299
G1 X137.582 Y99.863 E46.8580
G1 X137.579 Y100.213 E46.8696
G1 X137.545 Y100.896 E46.8924
G1 X137.356 Y102.231 E46.9372
G1 X137.082 Y103.293 E46.9736
G1 X136.705 Y104.321 E47.0101
G1 X136.229 Y105.307 E47.0465
G1 X135.820 Y105.990 E47.0729
G1 X135.656 Y106.243 E47.0829
G1 X135.183 Y106.881 E47.1093
G1 X134.995 Y107.117 E47.1194
G1 X134.462 Y107.705 E47.1457
G1 X134.251 Y107.921 E47.1558
G1 X133.663 Y108.454 E47.1822
G1 X133.431 Y108.648 E47.1922
G1 X132.793 Y109.120 E47.2186
G1 X132.543 Y109.290 E47.2287
G1 X131.863 Y109.698 E47.2550
G1 X131.596 Y109.841 E47.2651
G1 X130.879 Y110.180 E47.2915
G1 X130.600 Y110.296 E47.3015
G1 X129.852 Y110.564 E47.3279
G1 X129.563 Y110.651 E47.3379
G1 X128.793 Y110.844 E47.3643
G1 X128.497 Y110.901 E47.3744
G1 X127.712 Y111.018 E47.4007
G1 X127.411 Y111.045 E47.4108
G1 X126.618 Y111.084 E47.4372
G1 X126.316 Y111.081 E47.4472
G1 X125.523 Y111.042 E47.4736
G1 X125.223 Y111.009 E47.4837
G1 X124.438 Y110.893 E47.5100
G1 X124.142 Y110.830 E47.5201
G1 X123.372 Y110.637 E47.5465
G1 X123.085 Y110.544 E47.5565
G1 X122.335 Y110.276 E47.5830
G1 X121.342 Y109.816 E47.6194
G1 X120.398 Y109.260 E47.6558
G1 X119.514 Y108.613 E47.6922
G1 X118.698 Y107.882 E47.7286
G1 X117.958 Y107.074 E47.7651
G1 X117.301 Y106.197 E47.8015
G1 X116.734 Y105.259 E47.8379
G1 X116.263 Y104.270 E47.8743
G1 X115.891 Y103.240 E47.9107
G1 X115.623 Y102.177 E47.9472
G1 X115.461 Y101.094 E47.9836
G1 X115.407 Y100.000 E48.0200
G1 X115.461 Y98.906 E48.0564
G1 X115.623 Y97.822 E48.0928
G1 X115.891 Y96.760 E48.1292
G1 X116.263 Y95.730 E48.1657
G1 X116.734 Y94.741 E48.2021
G1 X117.301 Y93.803 E48.2385
G1 X117.958 Y92.926 E48.2749
G1 X118.698 Y92.118 E48.3113
G1 X119.514 Y91.387 E48.3478
G1 X120.398 Y90.740 E48.3842
G1 X121.342 Y90.184 E48.4206
G1 X122.335 Y89.724 E48.4570
G1 X123.085 Y89.456 E48.4835
G1 X123.372 Y89.363 E48.4935
G1 X124.142 Y89.170 E48.5199
G1 X124.438 Y89.107 E48.5299
G1 X125.223 Y88.991 E48.5563
G1 X125.523 Y88.957 E48.5664
G1 X126.316 Y88.919 E48.5928
G1 X126.618 Y88.916 E48.6028
G1 X127.411 Y88.955 E48.6292
G1 X127.711 Y88.982 E48.6392
G1 X128.497 Y89.099 E48.6656
G1 X128.793 Y89.156 E48.6757
G1 X129.563 Y89.349 E48.7020
G1 X129.853 Y89.437 E48.7121
G1 X130.600 Y89.704 E48.7385
G1 X130.879 Y89.820 E48.7485
G1 X131.596 Y90.159 E48.7749
G1 X131.863 Y90.302 E48.7850
G1 X132.543 Y90.710 E48.8113
G1 X132.793 Y90.880 E48.8214
G1 X133.431 Y91.352 E48.8478
G1 X133.663 Y91.546 E48.8578
G1 X134.251 Y92.079 E48.8842
G1 X134.462 Y92.295 E48.8942
G1 X134.995 Y92.883 E48.9206
G1 X135.183 Y93.119 E48.9307
G1 X135.656 Y93.757 E48.9570
G1 X135.820 Y94.010 E48.9671
G1 X136.229 Y94.693 E48.9935
G1 X136.705 Y95.679 E49.0299
G1 X137.082 Y96.707 E49.0663
G1 X137.341 Y97.713 E49.1009
G1 X137.907 Y98.110
;segType:Loop
G0 X137.904 Y98.753 F10800
G1 X137.937 Y98.979 E49.1085 F3600
G1 X137.981 Y99.854 E49.1376
G1 X137.979 Y100.224 E49.1499
G1 X137.943 Y100.933 E49.1735
G1 X137.749 Y102.308 E49.2197
G1 X137.465 Y103.411 E49.2575
G1 X137.074 Y104.476 E49.2953
G1 X136.582 Y105.496 E49.3329
G1 X136.160 Y106.199 E49.3602
G1 X135.986 Y106.469 E49.3709
G1 X135.501 Y107.123 E49.3979
G1 X135.300 Y107.374 E49.4086
G1 X134.754 Y107.977 E49.4356
G1 X134.529 Y108.207 E49.4464
G1 X133.926 Y108.754 E49.4734
G1 X133.679 Y108.960 E49.4841
G1 X133.025 Y109.444 E49.5111
G1 X132.759 Y109.625 E49.5218
G1 X132.061 Y110.043 E49.5489
G1 X131.778 Y110.196 E49.5596
G1 X131.042 Y110.544 E49.5866
G1 X130.745 Y110.667 E49.5973
G1 X129.978 Y110.941 E49.6244
G1 X129.670 Y111.035 E49.6351
G1 X128.880 Y111.232 E49.6622
G1 X128.565 Y111.294 E49.6729
G1 X127.760 Y111.413 E49.6999
G1 X127.439 Y111.442 E49.7106
G1 X126.626 Y111.482 E49.7377
G1 X126.304 Y111.479 E49.7484
G1 X125.491 Y111.439 E49.7754
G1 X125.171 Y111.404 E49.7861
G1 X124.366 Y111.285 E49.8132
G1 X124.051 Y111.217 E49.8239
G1 X123.262 Y111.020 E49.8510
G1 X122.955 Y110.921 E49.8617
G1 X122.183 Y110.644 E49.8889
G1 X121.155 Y110.168 E49.9266
G1 X120.177 Y109.592 E49.9643
G1 X119.261 Y108.922 E50.0021
G1 X118.415 Y108.165 E50.0398
G1 X117.649 Y107.327 E50.0775
G1 X116.968 Y106.419 E50.1153
G1 X116.381 Y105.448 E50.1530
G1 X115.893 Y104.423 E50.1907
G1 X115.508 Y103.356 E50.2284
G1 X115.230 Y102.255 E50.2662
G1 X115.063 Y101.133 E50.3039
G1 X115.007 Y100.000 E50.3416
G1 X115.063 Y98.867 E50.3793
G1 X115.230 Y97.744 E50.4170
G1 X115.508 Y96.644 E50.4548
G1 X115.893 Y95.577 E50.4925
G1 X116.381 Y94.552 E50.5302
G1 X116.968 Y93.581 E50.5679
G1 X117.649 Y92.673 E50.6057
G1 X118.415 Y91.835 E50.6434
G1 X119.261 Y91.078 E50.6811
G1 X120.177 Y90.408 E50.7189
G1 X121.155 Y89.832 E50.7566
G1 X122.183 Y89.356 E50.7943
G1 X122.955 Y89.079 E50.8215
G1 X123.262 Y88.980 E50.8322
G1 X124.051 Y88.783 E50.8593
G1 X124.366 Y88.715 E50.8700
G1 X125.171 Y88.596 E50.8971
G1 X125.491 Y88.561 E50.9078
G1 X126.304 Y88.521 E50.9348
G1 X126.626 Y88.517 E50.9455
G1 X127.439 Y88.558 E50.9726
G1 X127.760 Y88.587 E50.9833
G1 X128.565 Y88.706 E51.0103
G1 X128.880 Y88.768 E51.0210
G1 X129.670 Y88.965 E51.0481
G1 X129.978 Y89.059 E51.0588
G1 X130.745 Y89.333 E51.0859
G1 X131.042 Y89.456 E51.0966
G1 X131.778 Y89.804 E51.1236
G1 X132.061 Y89.957 E51.1343
G1 X132.759 Y90.375 E51.1614
G1 X133.025 Y90.556 E51.1721
G1 X133.679 Y91.040 E51.1991
G1 X133.926 Y91.246 E51.2098
G1 X134.529 Y91.793 E51.2369
G1 X134.754 Y92.023 E51.2476
G1 X135.300 Y92.626 E51.2746
G1 X135.501 Y92.877 E51.2853
G1 X135.986 Y93.531 E51.3123
G1 X136.160 Y93.801 E51.3230
G1 X136.582 Y94.504 E51.3503
G1 X137.074 Y95.524 E51.3879
G1 X137.465 Y96.589 E51.4257
G1 X137.748 Y97.690 E51.4635
G1 X137.876 Y98.563 E51.4928
;segType:HShell
G0 X138.162 Y99.457 F10800
G1 X145.351 Y106.611 E51.8299 F3600
G1 X144.807 Y106.611
G1 X138.180 Y100.017 E52.1407
G1 X138.163 Y100.541
G1 X144.264 Y106.611 E52.4268
G1 X143.720 Y106.611
G1 X138.129 Y101.048 E52.6890
G1 X138.062 Y101.523
G1 X143.176 Y106.611 E52.9288
G1 X142.632 Y106.611
G1 X137.995 Y101.997 E53.1462
G1 X137.916 Y102.460
G1 X142.088 Y106.611 E53.3418
G1 X141.544 Y106.611
G1 X137.805 Y102.891 E53.5172
G1 X137.694 Y103.321
G1 X141.000 Y106.611 E53.6722
G1 X140.456 Y106.611
G1 X137.561 Y103.730 E53.8080
G1 X137.415 Y104.126
G1 X139.912 Y106.611 E53.9251
G1 X139.368 Y106.611
G1 X137.270 Y104.523 E54.0235
G1 X137.096 Y104.891
G1 X138.930 Y106.716 E54.1095
G1 X138.585 Y106.913
G1 X136.919 Y105.256 E54.1876
G1 X136.740 Y105.619
G1 X138.240 Y107.112 E54.2579
G1 X137.896 Y107.310
G1 X136.537 Y105.958 E54.3216
G1 X136.334 Y106.297
G1 X137.552 Y107.509 E54.3788
G1 X137.208 Y107.708
G1 X136.119 Y106.625 E54.4298
G1 X135.888 Y106.936
G1 X136.864 Y107.907 E54.4755
G1 X136.519 Y108.105
G1 X135.657 Y107.247 E54.5160
G1 X135.414 Y107.546
G1 X136.175 Y108.304 E54.5517
G1 X135.831 Y108.503
G1 X135.156 Y107.831 E54.5834
G1 X134.898 Y108.116
G1 X135.487 Y108.701 E54.6110
G1 X135.143 Y108.900
G1 X134.627 Y108.387 E54.6351
G1 X134.343 Y108.645
G1 X134.799 Y109.099 E54.6565
G1 X134.454 Y109.298
G1 X134.058 Y108.903 E54.6751
G1 X133.760 Y109.148
G1 X134.110 Y109.496 E54.6915
G1 X133.766 Y109.695
G1 X133.448 Y109.379 E54.7064
G1 X133.137 Y109.610
G1 X133.422 Y109.894 E54.7198
G1 X133.078 Y110.092
G1 X132.810 Y109.826 E54.7323
G1 X132.471 Y110.030
G1 X132.733 Y110.291 E54.7446
G1 X132.389 Y110.490
G1 X132.130 Y110.232 E54.7568
G1 X131.773 Y110.418
G1 X132.045 Y110.689 E54.7695
G1 X131.701 Y110.887
G1 X131.405 Y110.593 E54.7834
G1 X131.033 Y110.764
G1 X131.357 Y111.086 E54.7986
G1 X131.013 Y111.285
G1 X130.642 Y110.916 E54.8160
G1 X130.242 Y111.059
G1 X130.668 Y111.483 E54.8360
G1 X130.324 Y111.682
G1 X129.833 Y111.193 E54.8591
G1 X129.403 Y111.307
G1 X129.980 Y111.881 E54.8861
G1 X129.636 Y112.080
G1 X128.969 Y111.416 E54.9174
G1 X128.512 Y111.503
G1 X129.292 Y112.278 E54.9540
G1 X128.947 Y112.477
G1 X128.039 Y111.573 E54.9966
G1 X127.554 Y111.632
G1 X128.603 Y112.676 E55.0458
G1 X128.259 Y112.874
G1 X127.040 Y111.661 E55.1030
G1 X126.515 Y111.680
G1 X127.915 Y113.073 E55.1686
G1 X127.571 Y113.272
G1 X125.952 Y111.661 E55.2446
G1 X125.373 Y111.627
G1 X127.227 Y113.471 E55.3315
G1 X126.882 Y113.669
G1 X124.744 Y111.542 E55.4317
G0 X126.538 Y113.868 F10800
G1 X124.086 Y111.429 E55.5467 F3600
G1 X123.363 Y111.250
G1 X125.362 Y113.239 E55.6404
G0 X124.066 Y112.491 F10800
G1 X122.558 Y110.990 E55.7112 F3600
G1 X122.770 Y111.743
G1 X121.629 Y110.607 E55.7647
G1 X121.474 Y110.994
G1 X120.471 Y109.996 E55.8117
G1 X120.179 Y110.246
G1 X114.467 Y104.563 E56.0796
G1 X114.467 Y105.104
G1 X118.883 Y109.498 E56.2867
G0 X117.587 Y108.750 F10800
G1 X114.467 Y105.646 E56.4330 F3600
G1 X114.467 Y106.187
G1 X116.291 Y108.002 E56.5186
G0 X114.995 Y107.254 F10800
G1 X114.467 Y106.728 E56.5434 F3600
G0 X116.523 Y106.069 F10800
G1 X114.467 Y104.022 E56.6398 F3600
G1 X114.467 Y103.481
G1 X115.904 Y104.912 E56.7072
G0 X115.525 Y103.993 F10800
G1 X114.467 Y102.940 E56.7569 F3600
G1 X114.467 Y102.399
G1 X115.259 Y103.187 E56.7941
G1 X115.077 Y102.465
G1 X114.467 Y101.857 E56.8227
G1 X114.467 Y101.316
G1 X114.962 Y101.809 E56.8459
G1 X114.867 Y101.173
G1 X114.467 Y100.775 E56.8647
G1 X114.467 Y100.234
G1 X114.836 Y100.602 E56.8820
G1 X114.808 Y100.032
G1 X114.467 Y99.693 E56.8980
G1 X114.467 Y99.152
G1 X114.830 Y99.514 E56.9151
G1 X114.856 Y98.998
G1 X114.467 Y98.611 E56.9333
G1 X114.467 Y98.069
G1 X114.913 Y98.514 E56.9543
G1 X114.984 Y98.043
G1 X114.467 Y97.528 E56.9785
G1 X114.467 Y96.987
G1 X115.065 Y97.583 E57.0066
G1 X115.174 Y97.150
G1 X114.467 Y96.446 E57.0398
G1 X114.467 Y95.905
G1 X115.283 Y96.717 E57.0781
G1 X115.417 Y96.309
G1 X114.467 Y95.364 E57.1227
G1 X114.467 Y94.822
G1 X115.560 Y95.911 E57.1739
G1 X115.704 Y95.512
G1 X114.467 Y94.281 E57.2320
G1 X114.467 Y93.740
G1 X115.878 Y95.144 E57.2981
G1 X116.053 Y94.777
G1 X114.467 Y93.199 E57.3725
G1 X114.717 Y92.907
G1 X116.232 Y94.414 E57.4436
G1 X116.436 Y94.076
G1 X115.061 Y92.708 E57.5080
G1 X115.405 Y92.510
G1 X116.640 Y93.738 E57.5659
G1 X116.850 Y93.406
G1 X115.750 Y92.311 E57.6175
G1 X116.094 Y92.112
G1 X117.082 Y93.096 E57.6639
G1 X117.315 Y92.786
G1 X116.438 Y91.914 E57.7050
G1 X116.782 Y91.715
G1 X117.553 Y92.482 E57.7411
G1 X117.812 Y92.199
G1 X117.126 Y91.516 E57.7733
G1 X117.471 Y91.317
G1 X118.072 Y91.915 E57.8015
G1 X118.337 Y91.638
G1 X117.815 Y91.119 E57.8260
G1 X118.159 Y90.920
G1 X118.623 Y91.382 E57.8477
G1 X118.909 Y91.126
G1 X118.503 Y90.721 E57.8668
G1 X118.847 Y90.523
G1 X119.201 Y90.875 E57.8834
G1 X119.515 Y90.646
G1 X119.191 Y90.324 E57.8986
G1 X119.536 Y90.125
G1 X119.828 Y90.416 E57.9123
G1 X120.148 Y90.194
G1 X119.880 Y89.926 E57.9249
G1 X120.224 Y89.728
G1 X120.490 Y89.992 E57.9374
G1 X120.832 Y89.791
G1 X120.568 Y89.529 E57.9497
G1 X120.912 Y89.330
G1 X121.183 Y89.600 E57.9624
G1 X121.554 Y89.428
G1 X121.257 Y89.132 E57.9763
G1 X121.601 Y88.933
G1 X121.925 Y89.256 E57.9916
G1 X122.311 Y89.098
G1 X121.945 Y88.734 E58.0087
G1 X122.289 Y88.535
G1 X122.711 Y88.955 E58.0285
G1 X123.117 Y88.818
G1 X122.633 Y88.337 E58.0512
G1 X122.977 Y88.138
G1 X123.546 Y88.704 E58.0778
G1 X123.981 Y88.595
G1 X123.322 Y87.939 E58.1087
G1 X123.666 Y87.741
G1 X124.433 Y88.504 E58.1447
G1 X124.907 Y88.434
G1 X124.010 Y87.542 E58.1868
G1 X124.354 Y87.343
G1 X125.388 Y88.372 E58.2353
G1 X125.901 Y88.341
G1 X124.698 Y87.145 E58.2917
G1 X125.043 Y86.946
G1 X126.424 Y88.321 E58.3565
G1 X126.984 Y88.336
G1 X125.387 Y86.747 E58.4313
G1 X125.731 Y86.548
G1 X127.561 Y88.369 E58.5172
G1 X128.185 Y88.449
G1 X126.075 Y86.350 E58.6161
G1 X126.419 Y86.151
G1 X128.837 Y88.556 E58.7295
G1 X129.557 Y88.732
G1 X127.505 Y86.690 E58.8257
G0 X128.801 Y87.438 F10800
G1 X130.351 Y88.980 E58.8984 F3600
G1 X130.097 Y88.186
G1 X131.251 Y89.335 E58.9525
G1 X131.393 Y88.934
G1 X132.376 Y89.913 E58.9986
G1 X132.688 Y89.683
G1 X134.643 Y91.627 E59.0903
G0 X133.984 Y90.431 F10800
G1 X145.695 Y102.082 E59.6395 F3600
G1 X145.695 Y101.541
G1 X135.280 Y91.179 E60.1279
G0 X136.576 Y91.927 F10800
G1 X145.695 Y101.000 E60.5555 F3600
G1 X145.695 Y100.459
G1 X137.872 Y92.675 E60.9224
G0 X134.756 Y91.740 F10800
G1 X145.695 Y102.623 E61.4354 F3600
G1 X145.695 Y103.164
G1 X136.554 Y94.070 E61.8640
G0 X137.494 Y96.087 F10800
G1 X145.695 Y104.247 E62.2486 F3600
G1 X145.695 Y103.706
G1 X137.134 Y95.188 E62.6501
G0 X139.102 Y93.358 F10800
G1 X145.695 Y99.918 E62.9593 F3600
G1 X145.695 Y99.376
G1 X139.660 Y93.372 E63.2423
G1 X140.218 Y93.386
G1 X145.695 Y98.835 E63.4991
G1 X145.695 Y98.294
G1 X140.765 Y93.389 E63.7303
G1 X141.309 Y93.389
G1 X145.695 Y97.753 E63.9359
G1 X145.695 Y97.212
G1 X141.853 Y93.389 E64.1161
G1 X142.397 Y93.389
G1 X145.695 Y96.671 E64.2708
G1 X145.695 Y96.129
G1 X142.941 Y93.389 E64.3999
G1 X143.485 Y93.389
G1 X145.695 Y95.588 E64.5035
G1 X145.695 Y95.047
G1 X144.029 Y93.389 E64.5817
G1 X144.573 Y93.389
G1 X145.695 Y94.506 E64.6343
G1 X145.695 Y93.965
G1 X145.117 Y93.389 E64.6614
G0 X145.695 Y105.870 F10800
G1 X138.032 Y98.246 E65.0208 F3600
G1 X137.933 Y97.606
G1 X145.695 Y105.329 E65.3848
G0 F4800 E64.3848
G0 X128.595 Y111.467 F10800
G0 X110.961 Y114.076
G0 X108.484 Y114.647
G0 X108.366 Y114.200
G0 X106.445 Y114.759
G0 F4800 E65.3848
;segType:Loop
G1 X106.019 Y115.232 E65.4059 F3600
G1 X106.024 Y115.693 E65.4212
G1 X105.588 Y115.546 E65.4366
G1 X103.794 Y116.344 E65.5018
G1 X101.830 Y116.344 E65.5671
G1 X101.572 Y116.582 E65.5788
G1 X101.636 Y116.379 E65.5859
G1 X99.766 Y115.546 E65.6540
G1 X99.427 Y115.660 E65.6658
G1 X99.572 Y115.496 E65.6731
G1 X98.204 Y113.977 E65.7411
G1 X97.844 Y113.942 E65.7531
G1 X98.046 Y113.850 E65.7605
G1 X97.415 Y111.907 E65.8284
G1 X97.010 Y111.679 E65.8438
G1 X97.359 Y111.369 E65.8593
G1 X97.564 Y109.420 E65.9245
G1 X98.544 Y107.721 E65.9897
G1 X98.444 Y107.269 E66.0051
G1 X98.903 Y107.322 E66.0204
G1 X100.492 Y106.168 E66.0857
G1 X102.411 Y105.760 E66.1509
G1 X102.613 Y105.476 E66.1625
G1 X102.593 Y105.686 E66.1695
G1 X104.599 Y106.112 E66.2377
G1 X104.902 Y105.931 E66.2494
G1 X104.796 Y106.120 E66.2566
G1 X106.451 Y107.322 E66.3246
G1 X106.909 Y107.269 E66.3399
G1 X106.809 Y107.721 E66.3553
G1 X107.790 Y109.419 E66.4205
G1 X107.981 Y111.245 E66.4815
G1 X108.296 Y111.705 E66.5001
G1 X107.938 Y111.907 E66.5137
G1 X107.333 Y113.773 E66.5789
G1 X106.573 Y114.616 E66.6167
G0 X106.241 Y115.315 F10800
G0 X107.305 Y114.113
G0 X108.007 Y113.936
;segType:Perimeter
G1 X107.410 Y114.284 E66.6397 F2160
G1 X106.421 Y115.382 E66.6888
G1 X106.423 Y115.619 E66.6967
G1 X106.873 Y116.133 E66.7194
G1 X107.034 Y116.413 E66.7301
G1 X107.177 Y116.799 E66.7438
G1 X107.276 Y117.228 E66.7584
G1 X107.114 Y117.363 E66.7654
G1 X106.657 Y117.085 E66.7832
G1 X106.395 Y116.871 E66.7945
G1 X106.185 Y116.636 E66.8049
G1 X105.834 Y116.049 E66.8277
G1 X105.608 Y115.973 E66.8356
G1 X104.205 Y116.597 E66.8867
G1 X104.452 Y117.381 E66.9140
G1 X104.489 Y117.724 E66.9255
G1 X104.429 Y118.352 E66.9464
G1 X104.379 Y118.581 E66.9542
G1 X104.177 Y118.624 E66.9611
G1 X103.862 Y118.159 E66.9797
G1 X103.616 Y117.552 E67.0015
G1 X103.524 Y116.742 E67.0286
G1 X101.987 Y116.742 E67.0797
G1 X101.812 Y116.904 E67.0876
G1 X101.730 Y117.582 E67.1103
G1 X101.617 Y117.921 E67.1222
G1 X101.402 Y118.314 E67.1371
G1 X101.180 Y118.624 E67.1498
G1 X100.977 Y118.581 E67.1567
G1 X100.893 Y118.161 E67.1709
G1 X100.904 Y117.372 E67.1971
G1 X101.148 Y116.597 E67.2241
G1 X99.746 Y115.973 E67.2752
G1 X99.519 Y116.049 E67.2831
G1 X99.169 Y116.636 E67.3059
G1 X98.938 Y116.889 E67.3173
G1 X98.597 Y117.153 E67.3316
G1 X98.242 Y117.363 E67.3453
G1 X98.076 Y117.243 E67.3521
G1 X98.215 Y116.675 E67.3716
G1 X98.350 Y116.348 E67.3833
G1 X98.492 Y116.115 E67.3924
G1 X99.037 Y115.498 E67.4198
G1 X98.011 Y114.358 E67.4708
G1 X97.773 Y114.335 E67.4787
G1 X97.214 Y114.729 E67.5014
G1 X96.960 Y114.847 E67.5107
G1 X96.569 Y114.953 E67.5242
G1 X96.071 Y115.016 E67.5409
G1 X95.968 Y114.837 E67.5478
G1 X96.266 Y114.442 E67.5642
G1 X96.532 Y114.175 E67.5767
G1 X96.808 Y113.977 E67.5880
G1 X97.556 Y113.636 E67.6154
G1 X97.082 Y112.177 E67.6664
G1 X96.874 Y112.060 E67.6743
G1 X96.211 Y112.190 E67.6968
G1 X95.488 Y112.126 E67.7209
G1 X95.056 Y111.994 E67.7359
G1 X95.020 Y111.784 E67.7430
G1 X95.477 Y111.535 E67.7603
G1 X96.122 Y111.344 E67.7827
G1 X96.799 Y111.333 E67.8052
G1 X96.977 Y111.175 E67.8131
G1 X97.137 Y109.650 E67.8641
G1 X96.335 Y109.472 E67.8914
G1 X95.993 Y109.318 E67.9038
G1 X95.564 Y109.015 E67.9213
G1 X95.333 Y108.808 E67.9316
G1 X95.397 Y108.612 E67.9385
G1 X96.077 Y108.569 E67.9611
G1 X96.436 Y108.611 E67.9731
G1 X96.592 Y108.655 E67.9785
G1 X97.353 Y108.986 E68.0061
G1 X98.120 Y107.656 E68.0571
G1 X98.069 Y107.425 E68.0650
G1 X97.522 Y107.014 E68.0877
G1 X97.303 Y106.772 E68.0986
G1 X97.074 Y106.405 E68.1130
G1 X96.920 Y105.984 E68.1279
G1 X97.031 Y105.862 E68.1334
G1 X97.569 Y106.054 E68.1524
G1 X97.865 Y106.211 E68.1635
G1 X98.090 Y106.379 E68.1729
G1 X98.556 Y106.881 E68.1956
G1 X98.793 Y106.909 E68.2036
G1 X100.035 Y106.007 E68.2546
G1 X99.630 Y105.290 E68.2820
G1 X99.543 Y105.044 E68.2906
G1 X99.473 Y104.668 E68.3034
G1 X99.458 Y104.100 E68.3223
G1 X99.644 Y104.017 E68.3290
G1 X99.994 Y104.344 E68.3450
G1 X100.235 Y104.638 E68.3576
G1 X100.411 Y104.943 E68.3693
G1 X100.672 Y105.723 E68.3966
G1 X102.174 Y105.403 E68.4477
G1 X102.312 Y105.211 E68.4556
G1 X102.250 Y104.453 E68.4808
G1 X102.312 Y104.087 E68.4932
G1 X102.427 Y103.721 E68.5059
G1 X102.564 Y103.402 E68.5175
G1 X102.781 Y103.397 E68.5247
G1 X102.963 Y103.825 E68.5401
G1 X103.103 Y104.561 E68.5650
G1 X103.025 Y105.371 E68.5921
G1 X104.528 Y105.690 E68.6432
G1 X104.733 Y105.568 E68.6511
G1 X104.954 Y104.922 E68.6738
G1 X105.143 Y104.604 E68.6861
G1 X105.422 Y104.280 E68.7003
G1 X105.709 Y104.017 E68.7132
G1 X105.896 Y104.100 E68.7200
G1 X105.880 Y104.668 E68.7389
G1 X105.804 Y105.071 E68.7525
G1 X105.724 Y105.289 E68.7602
G1 X105.318 Y106.007 E68.7877
G1 X106.560 Y106.909 E68.8387
G1 X106.798 Y106.881 E68.8466
G1 X107.262 Y106.381 E68.8693
G1 X107.547 Y106.176 E68.8810
G1 X107.917 Y105.998 E68.8947
G1 X108.348 Y105.888 E68.9094
G1 X108.458 Y106.013 E68.9150
G1 X108.221 Y106.512 E68.9333
G1 X108.034 Y106.793 E68.9446
G1 X107.832 Y107.014 E68.9545
G1 X107.284 Y107.425 E68.9773
G1 X107.233 Y107.656 E68.9852
G1 X108.001 Y108.986 E69.0362
G1 X108.758 Y108.656 E69.0636
G1 X108.987 Y108.600 E69.0715
G1 X109.576 Y108.569 E69.0911
G1 X109.955 Y108.607 E69.1037
G1 X110.019 Y108.803 E69.1106
G1 X109.577 Y109.175 E69.1298
G1 X109.012 Y109.473 E69.1510
G1 X108.216 Y109.650 E69.1782
G1 X108.369 Y111.104 E69.2268
G1 X108.525 Y111.333 E69.2360
G1 X109.238 Y111.344 E69.2597
G1 X109.605 Y111.427 E69.2722
G1 X110.014 Y111.600 E69.2870
G1 X110.333 Y111.782 E69.2992
G1 X110.311 Y111.990 E69.3061
G1 X109.865 Y112.126 E69.3216
G1 X109.142 Y112.190 E69.3457
G1 X108.479 Y112.060 E69.3682
G1 X108.271 Y112.177 E69.3761
G1 X107.797 Y113.636 E69.4271
G1 X108.544 Y113.976 E69.4544
G1 X108.856 Y114.207 E69.4673
G1 X109.201 Y114.580 E69.4842
G1 X109.387 Y114.835 E69.4947
G1 X109.282 Y115.016 E69.5016
G1 X108.811 Y114.959 E69.5174
G1 X108.384 Y114.843 E69.5321
G1 X108.120 Y114.719 E69.5418
G1 X107.495 Y114.274 E69.5673
G1 X106.836 Y114.064
;segType:HShell
G0 X105.777 Y115.399 F10800
G1 X104.156 Y113.786 E69.6434 F3600
G1 X103.762 Y113.935
G1 X105.293 Y115.459 E69.7152
G1 X104.917 Y115.626
G1 X103.368 Y114.085 E69.7878
G1 X102.916 Y114.176
G1 X104.542 Y115.793 E69.8641
G1 X104.166 Y115.961
G1 X102.303 Y114.107 E69.9514
;segType:Perimeter
G0 X101.950 Y114.006 F10800
G1 X101.682 Y113.371 E69.9744 F2160
G1 X100.880 Y112.824 E70.0066
G1 X100.759 Y112.695 E70.0125
G1 X100.513 Y112.332 E70.0271
G1 X100.388 Y112.105 E70.0357
G1 X100.228 Y111.612 E70.0529
G1 X100.179 Y111.122 E70.0693
G1 X100.179 Y110.862 E70.0779
G1 X100.267 Y110.402 E70.0935
G1 X100.477 Y109.903 E70.1115
G1 X100.601 Y109.678 E70.1200
G1 X100.764 Y109.464 E70.1290
G1 X101.026 Y109.196 E70.1414
G1 X101.341 Y108.976 E70.1542
G1 X101.741 Y108.758 E70.1693
G1 X102.159 Y108.629 E70.1839
G1 X102.938 Y108.589 E70.2098
G1 X103.419 Y108.688 E70.2262
G1 X104.079 Y109.004 E70.2505
G1 X104.491 Y109.351 E70.2684
G1 X104.892 Y109.905 E70.2911
G1 X105.105 Y110.452 E70.3107
G1 X105.186 Y111.082 E70.3318
G1 X105.112 Y111.684 E70.3519
G1 X104.893 Y112.258 E70.3723
G1 X104.553 Y112.747 E70.3921
G1 X104.198 Y113.064 E70.4080
G1 X103.934 Y113.231 E70.4183
G1 X103.114 Y113.542 E70.4475
G1 X102.931 Y113.577 E70.4537
G1 X101.909 Y113.462 E70.4879
G1 X101.784 Y113.421 E70.4922
G1 X101.115 Y113.595
;segType:Loop
G0 X100.631 Y113.136 F10800
G1 X100.618 Y113.127 E70.4928 F3600
G1 X100.445 Y112.943 E70.5012
G1 X100.171 Y112.539 E70.5174
G1 X100.019 Y112.263 E70.5279
G1 X99.834 Y111.694 E70.5478
G1 X99.779 Y111.141 E70.5662
G1 X99.779 Y110.825 E70.5767
G1 X99.882 Y110.286 E70.5950
G1 X100.116 Y109.730 E70.6150
G1 X100.264 Y109.461 E70.6253
G1 X100.461 Y109.204 E70.6360
G1 X100.765 Y108.892 E70.6505
G1 X101.129 Y108.637 E70.6653
G1 X101.584 Y108.390 E70.6825
G1 X102.088 Y108.234 E70.7000
G1 X102.969 Y108.189 E70.7293
G1 X103.548 Y108.308 E70.7490
G1 X104.299 Y108.667 E70.7767
G1 X104.788 Y109.079 E70.7979
G1 X105.246 Y109.714 E70.8240
G1 X105.496 Y110.354 E70.8468
G1 X105.589 Y111.081 E70.8712
G1 X105.503 Y111.780 E70.8946
G1 X105.250 Y112.444 E70.9182
G1 X104.855 Y113.012 E70.9412
G1 X104.441 Y113.381 E70.9596
G1 X104.115 Y113.588 E70.9725
G1 X103.224 Y113.926 E71.0041
G1 X102.946 Y113.979 E71.0136
G1 X101.823 Y113.853 E71.0511
G1 X101.551 Y113.764 E71.0606
G1 X100.790 Y113.245 E71.0913
;segType:HShell
G0 X101.660 Y114.009 F10800
G1 X103.790 Y116.128 E71.1912 F3600
